spectro/SOtele.sp
SPECT  

DESCRIPTOR "Argyll Spectrolino tele adapter compensation filter"
ORIGINATOR "Argyll CMS"
CREATED "Tue Apr 09 05:45:37 2019"
MEAS_TYPE "TRANSMISSIVE"
SPECTRAL_BANDS "36"
SPECTRAL_BANDS "36"
SPECTRAL_START_NM "380.000000"
SPECTRAL_END_NM "730.000000"
SPECTRAL_NORM "100.000000"

NUMBER_OF_FIELDS 36
BEGIN_DATA_FORMAT
SPEC_380 SPEC_390 SPEC_400 SPEC_410 SPEC_420 SPEC_430 SPEC_440 SPEC_450 SPEC_460 SPEC_470 SPEC_480 SPEC_490 SPEC_500 SPEC_510 SPEC_520 SPEC_530 SPEC_540 SPEC_550 SPEC_560 SPEC_570 SPEC_580 SPEC_590 SPEC_600 SPEC_610 SPEC_620 SPEC_630 SPEC_640 SPEC_650 SPEC_660 SPEC_670 SPEC_680 SPEC_690 SPEC_700 SPEC_710 SPEC_720 SPEC_730 
END_DATA_FORMAT

NUMBER_OF_SETS 1
BEGIN_DATA
67.89389 77.35641 87.40910 90.57319 91.05146 91.13605 91.57097 91.97475 92.03101 91.85796 91.73987 91.74402 91.80428 91.85258 91.88767 91.90182 91.91712 91.93917 91.95522 91.97064 91.95312 91.96322 91.97161 91.95627 91.95952 92.02494 92.15253 92.29912 92.42052 92.54543 92.64383 92.70650 92.74505 92.81128 92.81463 92.41912 
END_DATA
