ref/CIE_C.sp
SPECT

DESCRIPTOR "Argyll CIE illuminant C spectral power"

ORIGINATOR "Argyll CMS"

CREATED "Thu Dec 02 23:05:57 2009"
KEYWORD "SPECTRAL_BANDS"
SPECTRAL_BANDS "93"
KEYWORD "SPECTRAL_START_NM"
SPECTRAL_START_NM "320.000000"
KEYWORD "SPECTRAL_END_NM"
SPECTRAL_END_NM "780.000000"
KEYWORD "SPECTRAL_NORM"
SPECTRAL_NORM "100.000000"

KEYWORD "SPEC_320"
KEYWORD "SPEC_325"
KEYWORD "SPEC_330"
KEYWORD "SPEC_335"
KEYWORD "SPEC_340"
KEYWORD "SPEC_345"
KEYWORD "SPEC_350"
KEYWORD "SPEC_355"
KEYWORD "SPEC_360"
KEYWORD "SPEC_365"
KEYWORD "SPEC_370"
KEYWORD "SPEC_375"
KEYWORD "SPEC_380"
KEYWORD "SPEC_385"
KEYWORD "SPEC_390"
KEYWORD "SPEC_395"
KEYWORD "SPEC_400"
KEYWORD "SPEC_405"
KEYWORD "SPEC_410"
KEYWORD "SPEC_415"
KEYWORD "SPEC_420"
KEYWORD "SPEC_425"
KEYWORD "SPEC_430"
KEYWORD "SPEC_435"
KEYWORD "SPEC_440"
KEYWORD "SPEC_445"
KEYWORD "SPEC_450"
KEYWORD "SPEC_455"
KEYWORD "SPEC_460"
KEYWORD "SPEC_465"
KEYWORD "SPEC_470"
KEYWORD "SPEC_475"
KEYWORD "SPEC_480"
KEYWORD "SPEC_485"
KEYWORD "SPEC_490"
KEYWORD "SPEC_495"
KEYWORD "SPEC_500"
KEYWORD "SPEC_505"
KEYWORD "SPEC_510"
KEYWORD "SPEC_515"
KEYWORD "SPEC_520"
KEYWORD "SPEC_525"
KEYWORD "SPEC_530"
KEYWORD "SPEC_535"
KEYWORD "SPEC_540"
KEYWORD "SPEC_545"
KEYWORD "SPEC_550"
KEYWORD "SPEC_555"
KEYWORD "SPEC_560"
KEYWORD "SPEC_565"
KEYWORD "SPEC_570"
KEYWORD "SPEC_575"
KEYWORD "SPEC_580"
KEYWORD "SPEC_585"
KEYWORD "SPEC_590"
KEYWORD "SPEC_595"
KEYWORD "SPEC_600"
KEYWORD "SPEC_605"
KEYWORD "SPEC_610"
KEYWORD "SPEC_615"
KEYWORD "SPEC_620"
KEYWORD "SPEC_625"
KEYWORD "SPEC_630"
KEYWORD "SPEC_635"
KEYWORD "SPEC_640"
KEYWORD "SPEC_645"
KEYWORD "SPEC_650"
KEYWORD "SPEC_655"
KEYWORD "SPEC_660"
KEYWORD "SPEC_665"
KEYWORD "SPEC_670"
KEYWORD "SPEC_675"
KEYWORD "SPEC_680"
KEYWORD "SPEC_685"
KEYWORD "SPEC_690"
KEYWORD "SPEC_695"
KEYWORD "SPEC_700"
KEYWORD "SPEC_705"
KEYWORD "SPEC_710"
KEYWORD "SPEC_715"
KEYWORD "SPEC_720"
KEYWORD "SPEC_725"
KEYWORD "SPEC_730"
KEYWORD "SPEC_735"
KEYWORD "SPEC_740"
KEYWORD "SPEC_745"
KEYWORD "SPEC_750"
KEYWORD "SPEC_755"
KEYWORD "SPEC_760"
KEYWORD "SPEC_765"
KEYWORD "SPEC_770"
KEYWORD "SPEC_775"
KEYWORD "SPEC_780"
NUMBER_OF_FIELDS 93
BEGIN_DATA_FORMAT
SPEC_320 SPEC_325 SPEC_330 SPEC_335 SPEC_340 SPEC_345 SPEC_350 SPEC_355 SPEC_360 SPEC_365 SPEC_370 SPEC_375 SPEC_380 SPEC_385 SPEC_390 SPEC_395 SPEC_400 SPEC_405 SPEC_410 SPEC_415 SPEC_420 SPEC_425 SPEC_430 SPEC_435 SPEC_440 SPEC_445 SPEC_450 SPEC_455 SPEC_460 SPEC_465 SPEC_470 SPEC_475 SPEC_480 SPEC_485 SPEC_490 SPEC_495 SPEC_500 SPEC_505 SPEC_510 SPEC_515 SPEC_520 SPEC_525 SPEC_530 SPEC_535 SPEC_540 SPEC_545 SPEC_550 SPEC_555 SPEC_560 SPEC_565 SPEC_570 SPEC_575 SPEC_580 SPEC_585 SPEC_590 SPEC_595 SPEC_600 SPEC_605 SPEC_610 SPEC_615 SPEC_620 SPEC_625 SPEC_630 SPEC_635 SPEC_640 SPEC_645 SPEC_650 SPEC_655 SPEC_660 SPEC_665 SPEC_670 SPEC_675 SPEC_680 SPEC_685 SPEC_690 SPEC_695 SPEC_700 SPEC_705 SPEC_710 SPEC_715 SPEC_720 SPEC_725 SPEC_730 SPEC_735 SPEC_740 SPEC_745 SPEC_750 SPEC_755 SPEC_760 SPEC_765 SPEC_770 SPEC_775 SPEC_780
END_DATA_FORMAT

NUMBER_OF_SETS 1
BEGIN_DATA
0.01 0.20 0.40 1.55 2.70 4.85 7.00 9.95 12.90 17.20 21.40 27.50 33.00 39.92 47.40 55.17 63.30 71.81 80.60 89.53 98.10 105.80 112.40 117.75 121.50 123.45 124.00 123.60 123.10 123.30 123.80 124.09 123.90 122.92 120.70 116.90 112.10 106.98 102.30 98.81 96.90 96.78 98.00 99.94 102.10 103.95 105.20 105.67 105.30 104.11 102.30 100.15 97.80 95.43 93.20 91.22 89.70 88.83 88.40 88.19 88.10 88.06 88.00 87.86 87.80 87.99 88.20 88.20 87.90 87.22 86.30 85.30 84.00 82.21 80.20 78.24 76.30 74.36 72.40 70.40 68.30 66.30 64.40 62.80 61.50 60.20 59.20 58.50 58.10 58.00 58.20 58.50 59.10 
END_DATA
