ref/ColorCheckerSG.ti2
CTI2   

DESCRIPTOR "Argyll Calibration Target chart information 2"
ORIGINATOR "Argyll printtarg"
CREATED "Mon Feb 10 15:05:27 2014"
KEYWORD "TARGET_INSTRUMENT"
TARGET_INSTRUMENT   "GretagMacbeth SpectroScan"

COLOR_REP   "RGB"
STEPS_IN_PASS   10
PASSES_IN_STRIPS2   14
STRIP_INDEX_PATTERN "A-Z, A-Z"
PATCH_INDEX_PATTERN "@-9,0-9;01-99"
INDEX_ORDER "STRIP_THEN_PATCH"

NUMBER_OF_FIELDS 8
BEGIN_DATA_FORMAT
SAMPLE_ID SAMPLE_LOC XYZ_X XYZ_Y XYZ_Z RGB_R RGB_G RGB_B
END_DATA_FORMAT

NUMBER_OF_SETS 140
BEGIN_DATA
1  "A01" 88.2480 87.5060 67.6240 99.2353 99.7118 99.5554
2  "A02" 0.794510 0.785690 0.624230 3.14714 4.68603 5.08608
3  "A03" 18.3810 18.1460 14.1200 54.0301 65.6038 60.7520 
4  "A04" 88.6800 87.9440 68.0980 99.0451 99.4536 99.2556 
5  "A05" 0.824100 0.810630 0.656110 3.10665 4.43021 4.90322 
6  "A06" 18.4400 18.2040 14.1760 52.4803 64.1539 59.5981 
7  "A07" 88.6450 87.9000 67.9470 98.8924 98.9556 99.1026 
8  "A08" 0.832010 0.821550 0.664060 3.16261 3.84029 4.35848 
9  "A09" 18.1170 17.8910 13.9510 49.3671 61.6291 56.5615 
10 "A10" 88.8710 88.1260 68.0820 98.6642 99.1385 99.0660
11 "B01" 18.0200 17.7950 13.9090 55.0686 66.0592 61.9429
12 "B02" 13.9470 7.22560 8.26540 68.1681 0.0450395 56.4805
13 "B03" 35.6280 27.8520 32.8420 88.8315 59.9937 99.6552
14 "B04" 10.6720 5.28080 15.2480 43.1040 0.0502000 87.5639
15 "B05" 14.4130 15.7890 39.3970 21.7750 70.1273 99.9547 
16 "B06" 20.6780 26.2380 36.8920 35.2551 99.0188 77.5504 
17 "B07" 1.45030 2.34850 2.56120 2.04420 12.9928 18.2739 
18 "B08" 18.0380 25.7190 27.0400 32.3543 99.9619 64.7212 
19 "B09" 3.37980 3.27430 1.57890 8.38116 9.89768 6.55200 
20 "B10" 18.4840 18.2440 14.1910 51.0152 63.0221 58.4410 
21 "C01" 0.825050 0.814760 0.657280 3.45013 5.01294 5.40847 
22 "C02" 4.57810 3.29160 5.61620 12.9428 4.08519 38.0010 
23 "C03" 14.5950 11.3080 24.2900 43.8628 27.8035 99.9476 
24 "C04" 2.74320 2.49490 8.91480 0.0841099 5.05299 57.3589 
25 "C05" 22.9170 25.7880 40.2490 47.8425 89.5040 94.9187 
26 "C06" 1.83670 2.40490 5.02520 0.0925296 8.61708 42.0348 
26 "C07" 26.4450 26.6910 42.3540 60.2448 80.4263 99.6501 
28 "C08" 10.2540 16.9170 17.2820 20.7339 88.7631 52.2998 
29 "C09" 19.0520 27.2060 12.2700 41.1843 99.8507 35.2397 
30 "C10" 0.805310 0.795850 0.639850 3.03575 4.08577 4.67877 
31 "D01" 88.4950 87.7520 67.9080 99.5510 99.5464 99.5571 
32 "D02" 61.9490 61.4510 55.8040 96.4784 96.5058 99.5547 
33 "D03" 70.8290 63.5300 49.3270 99.7724 92.6467 98.0025 
34 "D04" 55.9600 62.6940 49.9140 89.0089 99.9676 94.1003 
35 "D05" 71.1690 64.5570 44.5670 99.8200 93.1762 96.0933 
36 "D06" 58.4250 62.2180 28.8560 95.2652 97.4714 85.5067 
37 "D07" 38.5680 30.1250 8.72090 97.7247 60.9183 25.4159 
38 "D08" 38.9330 32.3110 15.6350 94.9899 67.4615 67.8546 
39 "D09" 9.70690 17.2520 8.69020 18.0329 94.3103 15.6986 
40 "D10" 88.8520 88.1030 68.1490 98.8895 98.9418 99.0172 
41 "E01" 18.1400 17.9140 13.9700 56.1278 67.1050 63.4896 
42 "E02" 8.91530 6.95450 2.01090 42.6753 18.3928 0.240737
43 "E03" 39.6620 29.4150 2.05650 99.8589 57.9921 0.763152
44 "E04" 3.84910 2.21640 16.3130 0.0356264 1.61558 77.2429
45 "E05" 88.5440 87.7950 67.9070 99.2218 99.5992 99.5562
46 "E06" 0.797860 0.786020 0.637060 3.24176 4.79711 5.19033
47 "E07" 57.9520 50.1120 24.1350 99.8375 83.3955 73.6909
48 "E08" 55.6470 45.0930 20.4680 99.9381 76.3745 66.0755
49 "E09" 1.80460 2.87160 1.55130 4.48621 18.0239 4.30997
50 "E10" 18.2860 18.0540 14.0520 52.1381 63.9931 59.5867
51 "F01" 0.821450 0.811590 0.652140 3.57770 5.15708 5.53341
52 "F02" 37.5450 31.1590 14.8630 96.5601 68.3501 70.3025 
53 "F03" 9.33780 7.45630 25.3510 10.9434 23.1229 99.7024 
54 "F04" 12.1560 19.3000 4.12860 23.1756 99.6011 0.0467819 
55 "F05" 54.5560 53.7060 42.1400 94.0193 93.9462 95.0190 
56 "F06" 6.40720 6.33990 5.06690 17.0382 27.4615 23.1311 
57 "F07" 35.9410 31.6060 12.5440 92.1715 71.6310 56.7871 
58 "F08" 37.1160 32.6870 16.7870 90.7079 71.9484 62.7050 
59 "F09" 17.6330 26.2060 16.5150 36.1091 99.9776 44.7211 
60 "F10" 0.817450 0.803300 0.648070 3.03016 4.52847 4.93133 
61 "G01" 88.1180 87.3790 67.6390 99.6063 99.6546 99.6378 
62 "G02" 14.1420 14.4220 21.7790 31.5235 64.4645 88.2405 
63 "G03" 27.0730 16.1500 6.52890 99.3019 18.8709 29.9070 
64 "G04" 19.3760 9.31950 1.23360 92.7481 0.0514771 0.996714 
65 "G05" 33.4270 32.9730 25.9370 79.6111 83.8506 83.8771 
66 "G06" 11.0640 10.9460 8.65770 33.3576 46.6792 41.8190 
67 "G07" 16.1500 13.5220 3.95020 63.4164 39.5547 3.47786 
68 "G08" 37.6610 32.4480 16.8480 92.7905 70.2031 67.4679 
69 "G09" 21.4030 28.6380 6.93640 38.7589 99.9778 0.496405 
70 "G10" 88.7630 88.0110 68.0300 99.1885 99.2266 99.3112 
71 "H01" 18.2340 18.0030 14.0320 57.6571 67.9088 64.2915 
72 "H02" 7.93780 10.0280 2.21420 16.0406 60.3414 0.0759039 
73 "H03" 5.32950 3.13280 7.61040 18.4523 0.0274370 48.8589 
74 "H04" 58.2760 57.3920 3.84380 97.3325 94.4934 8.98711 
75 "H05" 18.0560 17.8320 13.9270 55.2642 65.9668 62.1343 
76 "H06" 27.8670 27.4770 21.6560 72.6082 79.1552 77.6922 
77 "H07" 40.9840 36.1270 18.8500 94.1035 76.7796 72.9008 
78 "H08" 38.1290 32.7720 16.0850 93.5800 70.8410 66.5429 
79 "H09" 10.9120 18.9050 3.25920 18.3400 97.6540 1.11200 
80 "H10" 18.3150 18.0830 14.0770 54.1252 65.7287 61.1352 
81 "I01" 0.877970 0.866490 0.692530 3.89803 5.52321 5.87104 
82 "I02" 20.9640 18.5090 28.0310 63.1732 61.5508 99.2533 
83 "I03" 33.5760 40.9120 5.28710 76.4298 99.9653 9.91792 
84 "I04" 28.7570 16.5770 19.4170 97.5162 15.7443 99.9554 
85 "I05" 8.34090 8.24580 6.46760 26.2127 37.6943 32.9267 
86 "I06" 47.5260 46.8020 36.7430 91.1191 92.1693 92.7183 
87 "I07" 18.5620 14.2840 2.53620 71.7667 36.8616 0.0762142 
88 "I08" 10.9170 8.92160 2.27380 49.8294 27.4643 0.0776073 
89 "I09" 17.4380 28.5650 5.55330 34.9025 99.9410 12.7946 
90 "I10" 0.821180 0.807980 0.647830 3.47476 5.04339 5.42659 
91 "J01" 88.4510 87.7100 67.8900 99.8550 99.9501 99.9252 
92 "J02" 28.2480 36.7910 28.9770 62.3789 99.9741 75.3109 
93 "J03" 46.4790 40.8160 3.05390 99.6210 80.8061 2.48062 
94 "J04" 10.7330 14.6700 25.4470 21.5610 81.2289 77.0705 
95 "J05" 1.94760 1.93530 1.62720 4.71988 8.24480 7.82566 
96 "J06" 72.4300 71.6040 56.5980 98.1204 98.3388 99.1073 
97 "J07" 39.0010 31.8440 12.6630 96.0770 67.9382 46.5024 
98 "J08" 41.2900 34.6190 13.3580 96.8660 72.4588 54.8591 
99 "J09" 34.2630 30.1940 5.39700 90.2234 70.2202 0.0623386 
100 "J10" 88.6890 87.9420 67.9450 99.2152 99.2801 99.5654 
101 "K01" 18.2870 18.0550 14.0940 59.0025 69.1409 65.5487 
102 "K02" 69.7990 64.7750 36.6120 99.6822 95.7093 91.7473 
103 "K03" 65.6850 71.9500 50.5420 96.8438 99.8905 97.2996 
104 "K04" 65.7350 62.3550 54.3800 98.3442 95.6648 99.6471 
105 "K05" 56.6400 60.8890 55.7810 93.0084 99.2612 98.7282 
106 "K06" 40.8830 40.3150 31.7710 87.4846 90.0455 89.9846 
107 "K07" 14.7360 14.5610 11.2750 47.0421 59.2067 53.9164 
108 "K08" 2.93200 2.88900 2.29030 7.41163 11.4541 9.79805 
109 "K09" 26.2580 30.2340 4.53580 63.1341 93.2221 0.0298406
110 "K10" 18.2730 18.0420 14.0570 55.2930 66.4439 62.3838 
111 "L01" 0.862840 0.850990 0.693220 3.87962 5.48970 5.85651
112 "L02" 6.16360 3.50110 1.81220 38.1729 0.0962079 3.80448
113 "L03" 26.3380 13.4420 1.40110 99.7165 4.53211 1.36954 
114 "L04" 38.5470 28.0920 19.9310 99.9731 55.0042 83.5153 
115 "L05" 39.7740 29.2290 14.6560 99.9422 58.7798 61.5525 
116 "L06" 46.5510 31.0860 1.68400 99.8180 54.7591 3.14563 
117 "L07" 40.3200 44.8880 2.28100 81.9478 98.4938 0.688775 
118 "L08" 30.8790 30.5350 4.30920 83.9547 79.4768 0.0391914 
119 "L09" 34.3480 43.5170 4.20490 69.3966 99.9270 0.0658071 
120 "L10" 0.800670 0.788840 0.635170 3.97289 5.83698 5.98220 
121 "M01" 18.1930 17.9660 14.0100 59.6309 69.7719 66.1588 
122 "M02" 23.9480 12.4740 6.90150 99.7706 4.70147 59.4602 
123 "M03" 4.91740 2.88340 3.24780 28.1391 0.561666 23.5497 
124 "M04" 22.8350 11.3090 2.24090 99.8063 1.68667 20.7720 
125 "M05" 37.8580 20.9420 3.22960 99.8275 25.8631 6.21660 
126 "M06" 68.6210 59.7530 4.77180 97.8760 92.5321 9.30162 
127 "M07" 62.1430 60.5650 3.45590 96.8719 96.3609 10.1197 
128 "M08" 36.4040 42.0820 3.08240 80.3325 98.4745 0.724150 
129 "M09" 3.84880 2.97780 0.821780 16.4467 9.88207 4.80164 
130 "M10" 18.2420 18.0100 14.0270 56.4231 67.0989 63.5167 
131 "N01" 88.2290 87.5100 67.7730 99.7306 99.7388 99.7304 
132 "N02" 18.2350 18.0070 14.0330 58.4655 68.6862 65.0329 
133 "N03" 0.902820 0.890040 0.724140 3.68406 5.33264 5.63854 
134 "N04" 88.5680 87.8170 67.9670 99.6812 99.9152 99.8513 
135 "N05" 18.1220 17.8970 13.9580 56.8631 66.9076 63.7330 
136 "N06" 0.910530 0.896090 0.727430 3.61138 5.17412 5.50048 
137 "N07" 88.7080 87.9570 67.9660 99.5758 99.5768 99.5772 
138 "N08" 18.1980 17.9690 14.0030 56.1060 66.6952 63.0654 
139 "N09" 0.843350 0.831020 0.672600 3.93895 5.79967 5.81986 
140 "N10" 88.8180 88.0710 68.1240 99.5289 99.6025 99.5746 
END_DATA
