ref/ECI2002.ti2
CTI2   

DESCRIPTOR "Argyll Calibration Target chart information 2"
ORIGINATOR "Argyll printtarg"
CREATED "Mon Oct 11 11:50:06 2010"
KEYWORD "TARGET_INSTRUMENT"
TARGET_INSTRUMENT "Xrite DTP41"
KEYWORD "APPROX_WHITE_POINT"
APPROX_WHITE_POINT "86.886812 89.830019 77.951670"
KEYWORD "COLOR_REP"
COLOR_REP "CMYK"
KEYWORD "RANDOM_START"
RANDOM_START "1251"
KEYWORD "PATCH_LENGTH"
PATCH_LENGTH "7.366000"
KEYWORD "GAP_LENGTH"
GAP_LENGTH "2.032000"
KEYWORD "TRAILER_LENGTH"
TRAILER_LENGTH "18.796000"
KEYWORD "STEPS_IN_PASS"
STEPS_IN_PASS "57"
KEYWORD "PASSES_IN_STRIPS2"
PASSES_IN_STRIPS2 "8,8,8,3"
KEYWORD "STRIP_INDEX_PATTERN"
STRIP_INDEX_PATTERN "A-Z, A-Z"
KEYWORD "PATCH_INDEX_PATTERN"
PATCH_INDEX_PATTERN "0-9,@-9,@-9;1-999"
KEYWORD "INDEX_ORDER"
INDEX_ORDER "STRIP_THEN_PATCH"

KEYWORD "SAMPLE_LOC"
NUMBER_OF_FIELDS 9
BEGIN_DATA_FORMAT
SAMPLE_ID SAMPLE_LOC CMYK_C CMYK_M CMYK_Y CMYK_K XYZ_X XYZ_Y XYZ_Z 
END_DATA_FORMAT

NUMBER_OF_SETS 1539
BEGIN_DATA
1 "K18" 0.0000 0.0000 0.0000 0.0000 82.670 85.770 75.100 
2 "C42" 0.0000 10.196 0.0000 0.0000 75.440 75.210 67.360 
3 "H41" 0.0000 20.000 0.0000 0.0000 68.390 65.250 59.520 
4 "J28" 0.0000 29.804 0.0000 0.0000 61.730 55.910 51.990 
5 "P43" 0.0000 40.000 0.0000 0.0000 55.570 47.360 44.900 
6 "P52" 0.0000 54.902 0.0000 0.0000 47.430 36.190 34.970 
7 "Q3" 0.0000 70.196 0.0000 0.0000 40.640 27.330 26.760 
8 "C3" 0.0000 85.098 0.0000 0.0000 36.010 21.120 20.750 
9 "O41" 0.0000 100.00 0.0000 0.0000 32.280 16.480 15.950 
10 "R55" 10.196 0.0000 0.0000 0.0000 74.060 78.380 73.130 
11 "V5" 10.196 10.196 0.0000 0.0000 67.440 68.580 65.650 
12 "R5" 10.196 20.000 0.0000 0.0000 61.180 59.530 58.060 
13 "L34" 10.196 29.804 0.0000 0.0000 55.110 50.870 50.710 
14 "G34" 10.196 40.000 0.0000 0.0000 49.460 42.920 43.790 
15 "B38" 10.196 54.902 0.0000 0.0000 42.150 32.700 34.170 
16 "A44" 10.196 70.196 0.0000 0.0000 36.060 24.630 26.220 
17 "S11" 10.196 85.098 0.0000 0.0000 31.880 18.960 20.420 
18 "X39" 10.196 100.00 0.0000 0.0000 28.510 14.710 15.790 
19 "R40" 20.000 0.0000 0.0000 0.0000 65.080 70.510 71.060 
20 "R31" 20.000 10.196 0.0000 0.0000 59.420 61.860 63.940 
21 "S5" 20.000 20.000 0.0000 0.0000 54.000 53.760 56.770 
22 "N37" 20.000 29.804 0.0000 0.0000 48.570 45.890 49.620 
23 "X57" 20.000 40.000 0.0000 0.0000 43.490 38.650 42.860 
24 "Y52" 20.000 54.902 0.0000 0.0000 36.980 29.400 33.560 
25 "D13" 20.000 70.196 0.0000 0.0000 31.560 22.080 25.870 
26 "Q15" 20.000 85.098 0.0000 0.0000 27.790 16.870 20.230 
27 "A15" 20.000 100.00 0.0000 0.0000 24.730 12.950 15.700 
28 "W20" 29.804 0.0000 0.0000 0.0000 56.270 62.660 68.950 
29 "AA44" 29.804 10.196 0.0000 0.0000 51.330 54.930 61.980 
30 "A43" 29.804 20.000 0.0000 0.0000 46.640 47.710 55.080 
31 "C45" 29.804 29.804 0.0000 0.0000 41.990 40.770 48.310 
32 "Z39" 29.804 40.000 0.0000 0.0000 37.620 34.380 41.870 
33 "V30" 29.804 54.902 0.0000 0.0000 31.960 26.120 32.880 
34 "H33" 29.804 70.196 0.0000 0.0000 27.230 19.560 25.440 
35 "C23" 29.804 85.098 0.0000 0.0000 23.930 14.880 20.050 
36 "Y49" 29.804 100.00 0.0000 0.0000 21.240 11.340 15.730 
37 "Z50" 40.000 0.0000 0.0000 0.0000 48.240 55.380 66.850 
38 "L20" 40.000 10.196 0.0000 0.0000 43.880 48.440 60.010 
39 "K41" 40.000 20.000 0.0000 0.0000 39.840 42.020 53.330 
40 "F1" 40.000 29.804 0.0000 0.0000 35.910 35.950 46.930 
41 "S55" 40.000 40.000 0.0000 0.0000 32.220 30.360 40.840 
42 "B10" 40.000 54.902 0.0000 0.0000 27.350 23.050 32.190 
43 "N30" 40.000 70.196 0.0000 0.0000 23.270 17.220 25.020 
44 "T4" 40.000 85.098 0.0000 0.0000 20.410 13.050 19.880 
45 "I25" 40.000 100.00 0.0000 0.0000 18.080 9.9000 15.760 
46 "G17" 54.902 0.0000 0.0000 0.0000 38.030 45.930 63.790 
47 "D2" 54.902 10.196 0.0000 0.0000 34.510 40.110 57.320 
48 "B52" 54.902 20.000 0.0000 0.0000 31.280 34.770 51.060 
49 "K1" 54.902 29.804 0.0000 0.0000 28.140 29.700 44.980 
50 "O42" 54.902 40.000 0.0000 0.0000 25.220 25.070 39.230 
51 "Z36" 54.902 54.902 0.0000 0.0000 21.420 19.070 31.290 
52 "F13" 54.902 70.196 0.0000 0.0000 18.220 14.260 24.660 
53 "P32" 54.902 85.098 0.0000 0.0000 15.880 10.710 19.720 
54 "Y57" 54.902 100.00 0.0000 0.0000 13.940 7.9900 15.690 
55 "K51" 70.196 0.0000 0.0000 0.0000 29.450 37.760 60.910 
56 "T57" 70.196 10.196 0.0000 0.0000 26.690 32.940 54.840 
57 "L28" 70.196 20.000 0.0000 0.0000 24.150 28.550 48.990 
58 "Y13" 70.196 29.804 0.0000 0.0000 21.690 24.370 43.210 
59 "K47" 70.196 40.000 0.0000 0.0000 19.410 20.550 37.770 
60 "O23" 70.196 54.902 0.0000 0.0000 16.490 15.670 30.460 
61 "B18" 70.196 70.196 0.0000 0.0000 14.010 11.710 24.300 
62 "S3" 70.196 85.098 0.0000 0.0000 12.120 8.7200 19.550 
63 "A9" 70.196 100.00 0.0000 0.0000 10.540 6.3900 15.630 
64 "R7" 85.098 0.0000 0.0000 0.0000 22.360 31.030 58.510 
65 "P51" 85.098 10.196 0.0000 0.0000 20.260 27.090 52.840 
66 "G55" 85.098 20.000 0.0000 0.0000 18.350 23.520 47.310 
67 "F25" 85.098 29.804 0.0000 0.0000 16.510 20.140 41.930 
68 "X30" 85.098 40.000 0.0000 0.0000 14.790 17.020 36.840 
69 "AA48" 85.098 54.902 0.0000 0.0000 12.500 12.920 29.790 
70 "AA46" 85.098 70.196 0.0000 0.0000 10.560 9.6000 23.840 
71 "Z23" 85.098 85.098 0.0000 0.0000 9.0900 7.1100 19.350 
72 "I55" 85.098 100.00 0.0000 0.0000 7.8700 5.1700 15.670 
73 "M27" 100.00 0.0000 0.0000 0.0000 16.720 25.290 56.260 
74 "X34" 100.00 10.196 0.0000 0.0000 15.170 22.120 51.000 
75 "A3" 100.00 20.000 0.0000 0.0000 13.770 19.260 45.750 
76 "Y30" 100.00 29.804 0.0000 0.0000 12.430 16.590 40.800 
77 "X4" 100.00 40.000 0.0000 0.0000 11.160 14.070 36.080 
78 "A8" 100.00 54.902 0.0000 0.0000 9.3600 10.620 29.150 
79 "Y39" 100.00 70.196 0.0000 0.0000 7.8300 7.8300 23.340 
80 "L44" 100.00 85.098 0.0000 0.0000 6.7100 5.7800 19.130 
81 "D52" 100.00 100.00 0.0000 0.0000 5.7900 4.2100 15.750 
82 "D3" 0.0000 0.0000 10.196 0.0000 80.380 84.000 64.370 
83 "O17" 0.0000 10.196 10.196 0.0000 73.240 73.550 57.600 
84 "H11" 0.0000 20.000 10.196 0.0000 66.560 63.900 51.070 
85 "C48" 0.0000 29.804 10.196 0.0000 60.220 54.850 44.770 
86 "O25" 0.0000 40.000 10.196 0.0000 54.320 46.530 38.760 
87 "C56" 0.0000 54.902 10.196 0.0000 46.490 35.580 30.230 
88 "E57" 0.0000 70.196 10.196 0.0000 39.940 26.920 23.160 
89 "AA55" 0.0000 85.098 10.196 0.0000 35.480 20.900 18.000 
90 "Z21" 0.0000 100.00 10.196 0.0000 31.910 16.410 13.900 
91 "G7" 10.196 0.0000 10.196 0.0000 71.850 76.680 62.750 
92 "H25" 10.196 10.196 10.196 0.0000 65.560 67.260 56.410 
93 "W51" 10.196 20.000 10.196 0.0000 59.560 58.430 50.060 
94 "F6" 10.196 29.804 10.196 0.0000 53.740 50.010 43.840 
95 "R50" 10.196 40.000 10.196 0.0000 48.340 42.280 37.940 
96 "K45" 10.196 54.902 10.196 0.0000 41.320 32.260 29.640 
97 "G23" 10.196 70.196 10.196 0.0000 35.490 24.370 22.790 
98 "A55" 10.196 85.098 10.196 0.0000 31.500 18.860 17.820 
99 "D5" 10.196 100.00 10.196 0.0000 28.300 14.750 13.870 
100 "N50" 20.000 0.0000 10.196 0.0000 63.190 69.190 61.080 
101 "G47" 20.000 10.196 10.196 0.0000 57.650 60.620 54.910 
102 "T27" 20.000 20.000 10.196 0.0000 52.360 52.680 48.710 
103 "J23" 20.000 29.804 10.196 0.0000 47.190 45.010 42.630 
104 "N57" 20.000 40.000 10.196 0.0000 42.370 37.990 36.900 
105 "B21" 20.000 54.902 10.196 0.0000 36.180 28.990 28.990 
106 "E7" 20.000 70.196 10.196 0.0000 31.020 21.860 22.440 
107 "E12" 20.000 85.098 10.196 0.0000 27.440 16.800 17.600 
108 "B42" 20.000 100.00 10.196 0.0000 24.540 12.990 13.700 
109 "Q43" 29.804 0.0000 10.196 0.0000 54.560 61.520 59.050 
110 "O44" 29.804 10.196 10.196 0.0000 49.750 53.870 53.150 
111 "C52" 29.804 20.000 10.196 0.0000 45.200 46.820 47.200 
112 "V1" 29.804 29.804 10.196 0.0000 40.730 40.020 41.410 
113 "F26" 29.804 40.000 10.196 0.0000 36.560 33.770 35.950 
114 "J37" 29.804 54.902 10.196 0.0000 31.180 25.750 28.380 
115 "I38" 29.804 70.196 10.196 0.0000 26.680 19.370 22.070 
116 "F23" 29.804 85.098 10.196 0.0000 23.510 14.790 17.380 
117 "AA15" 29.804 100.00 10.196 0.0000 20.920 11.310 13.590 
118 "Y54" 40.000 0.0000 10.196 0.0000 46.600 54.310 57.010 
119 "G19" 40.000 10.196 10.196 0.0000 42.470 47.550 51.400 
120 "O47" 40.000 20.000 10.196 0.0000 38.590 41.330 45.720 
121 "U42" 40.000 29.804 10.196 0.0000 34.790 35.350 40.250 
122 "F39" 40.000 40.000 10.196 0.0000 31.230 29.850 35.070 
123 "K23" 40.000 54.902 10.196 0.0000 26.600 22.740 27.800 
124 "Z18" 40.000 70.196 10.196 0.0000 22.720 17.060 21.720 
125 "G49" 40.000 85.098 10.196 0.0000 19.950 12.940 17.190 
126 "V56" 40.000 100.00 10.196 0.0000 17.670 9.8000 13.520 
127 "L47" 54.902 0.0000 10.196 0.0000 36.470 44.940 54.360 
128 "AA56" 54.902 10.196 10.196 0.0000 33.150 39.300 49.040 
129 "N49" 54.902 20.000 10.196 0.0000 30.120 34.180 43.840 
130 "H23" 54.902 29.804 10.196 0.0000 27.160 29.250 38.710 
131 "G25" 54.902 40.000 10.196 0.0000 24.390 24.710 33.830 
132 "K4" 54.902 54.902 10.196 0.0000 20.750 18.820 27.020 
133 "N17" 54.902 70.196 10.196 0.0000 17.690 14.080 21.310 
134 "M43" 54.902 85.098 10.196 0.0000 15.470 10.610 17.020 
135 "Q42" 54.902 100.00 10.196 0.0000 13.640 7.9500 13.520 
136 "K55" 70.196 0.0000 10.196 0.0000 27.940 36.820 51.930 
137 "E45" 70.196 10.196 10.196 0.0000 25.360 32.200 46.890 
138 "J26" 70.196 20.000 10.196 0.0000 23.020 28.000 42.110 
139 "H45" 70.196 29.804 10.196 0.0000 20.770 23.990 37.280 
140 "Q41" 70.196 40.000 10.196 0.0000 18.660 20.280 32.670 
141 "C2" 70.196 54.902 10.196 0.0000 15.860 15.440 26.300 
142 "AA18" 70.196 70.196 10.196 0.0000 13.490 11.540 20.940 
143 "N2" 70.196 85.098 10.196 0.0000 11.760 8.6500 16.890 
144 "P16" 70.196 100.00 10.196 0.0000 10.320 6.4100 13.560 
145 "X52" 85.098 0.0000 10.196 0.0000 20.880 30.120 49.870 
146 "R42" 85.098 10.196 10.196 0.0000 19.000 26.420 45.220 
147 "Y2" 85.098 20.000 10.196 0.0000 17.220 22.970 40.630 
148 "H21" 85.098 29.804 10.196 0.0000 15.530 19.690 36.070 
149 "Q45" 85.098 40.000 10.196 0.0000 13.960 16.660 31.740 
150 "D22" 85.098 54.902 10.196 0.0000 11.860 12.690 25.740 
151 "C22" 85.098 70.196 10.196 0.0000 10.070 9.4700 20.670 
152 "U35" 85.098 85.098 10.196 0.0000 8.7400 7.0600 16.830 
153 "J53" 85.098 100.00 10.196 0.0000 7.6400 5.2000 13.660 
154 "L12" 100.00 0.0000 10.196 0.0000 15.280 24.400 47.930 
155 "T16" 100.00 10.196 10.196 0.0000 13.990 21.530 43.690 
156 "L23" 100.00 20.000 10.196 0.0000 12.640 18.700 39.220 
157 "C44" 100.00 29.804 10.196 0.0000 11.390 16.040 34.910 
158 "S44" 100.00 40.000 10.196 0.0000 10.230 13.600 30.870 
159 "T14" 100.00 54.902 10.196 0.0000 8.6900 10.360 25.210 
160 "S9" 100.00 70.196 10.196 0.0000 7.3700 7.7300 20.420 
161 "G24" 100.00 85.098 10.196 0.0000 6.3600 5.7600 16.780 
162 "B53" 100.00 100.00 10.196 0.0000 5.5300 4.2200 13.770 
163 "H37" 0.0000 0.0000 20.000 0.0000 78.300 82.380 54.640 
164 "R37" 0.0000 10.196 20.000 0.0000 71.360 72.100 48.880 
165 "AA22" 0.0000 20.000 20.000 0.0000 65.060 62.860 43.680 
166 "V10" 0.0000 29.804 20.000 0.0000 58.960 54.020 38.370 
167 "T22" 0.0000 40.000 20.000 0.0000 53.250 45.860 33.210 
168 "O39" 0.0000 54.902 20.000 0.0000 45.770 35.240 25.990 
169 "V49" 0.0000 70.196 20.000 0.0000 39.500 26.800 19.980 
170 "Z56" 0.0000 85.098 20.000 0.0000 35.160 20.850 15.510 
171 "B39" 0.0000 100.00 20.000 0.0000 31.650 16.380 11.930 
172 "A50" 10.196 0.0000 20.000 0.0000 69.820 75.120 53.140 
173 "M39" 10.196 10.196 20.000 0.0000 63.810 65.980 47.900 
174 "U2" 10.196 20.000 20.000 0.0000 58.190 57.500 42.860 
175 "K15" 10.196 29.804 20.000 0.0000 52.650 49.350 37.630 
176 "I1" 10.196 40.000 20.000 0.0000 47.450 41.810 32.570 
177 "C32" 10.196 54.902 20.000 0.0000 40.640 31.960 25.540 
178 "Q29" 10.196 70.196 20.000 0.0000 34.960 24.170 19.690 
179 "W19" 10.196 85.098 20.000 0.0000 31.090 18.740 15.360 
180 "P41" 10.196 100.00 20.000 0.0000 27.980 14.690 11.890 
181 "B51" 20.000 0.0000 20.000 0.0000 61.330 67.780 51.660 
182 "E37" 20.000 10.196 20.000 0.0000 56.030 59.460 46.530 
183 "B31" 20.000 20.000 20.000 0.0000 51.100 51.890 41.660 
184 "U39" 20.000 29.804 20.000 0.0000 46.130 44.410 36.510 
185 "T47" 20.000 40.000 20.000 0.0000 41.450 37.500 31.540 
186 "I29" 20.000 54.902 20.000 0.0000 35.490 28.670 24.840 
187 "Y40" 20.000 70.196 20.000 0.0000 30.520 21.670 19.280 
188 "N25" 20.000 85.098 20.000 0.0000 27.040 16.700 15.120 
189 "J11" 20.000 100.00 20.000 0.0000 24.220 12.950 11.750 
190 "S22" 29.804 0.0000 20.000 0.0000 52.750 60.170 49.770 
191 "V9" 29.804 10.196 20.000 0.0000 48.210 52.780 44.850 
192 "B45" 29.804 20.000 20.000 0.0000 43.950 46.030 40.170 
193 "I49" 29.804 29.804 20.000 0.0000 39.710 39.450 35.370 
194 "B4" 29.804 40.000 20.000 0.0000 35.720 33.350 30.730 
195 "S52" 29.804 54.902 20.000 0.0000 30.520 25.450 24.250 
196 "A36" 29.804 70.196 20.000 0.0000 26.170 19.160 18.850 
197 "A27" 29.804 85.098 20.000 0.0000 23.120 14.680 14.860 
198 "U32" 29.804 100.00 20.000 0.0000 20.640 11.290 11.640 
199 "A17" 40.000 0.0000 20.000 0.0000 44.870 53.030 47.880 
200 "K30" 40.000 10.196 20.000 0.0000 41.020 46.530 43.230 
201 "M48" 40.000 20.000 20.000 0.0000 37.380 40.550 38.740 
202 "W53" 40.000 29.804 20.000 0.0000 33.840 34.820 34.310 
203 "V54" 40.000 40.000 20.000 0.0000 30.490 29.510 30.000 
204 "M56" 40.000 54.902 20.000 0.0000 26.000 22.460 23.730 
205 "N4" 40.000 70.196 20.000 0.0000 22.210 16.840 18.480 
206 "M12" 40.000 85.098 20.000 0.0000 19.560 12.830 14.660 
207 "F18" 40.000 100.00 20.000 0.0000 17.420 9.7900 11.580 
208 "A22" 54.902 0.0000 20.000 0.0000 35.030 43.940 45.670 
209 "F46" 54.902 10.196 20.000 0.0000 31.970 38.520 41.340 
210 "G53" 54.902 20.000 20.000 0.0000 29.140 33.620 37.240 
211 "Y11" 54.902 29.804 20.000 0.0000 26.340 28.850 32.990 
212 "B49" 54.902 40.000 20.000 0.0000 23.700 24.410 28.850 
213 "Z11" 54.902 54.902 20.000 0.0000 20.220 18.600 23.080 
214 "N55" 54.902 70.196 20.000 0.0000 17.280 13.940 18.230 
215 "G38" 54.902 85.098 20.000 0.0000 15.130 10.540 14.610 
216 "K9" 54.902 100.00 20.000 0.0000 13.360 7.9400 11.670 
217 "H43" 70.196 0.0000 20.000 0.0000 26.700 36.030 43.670 
218 "H17" 70.196 10.196 20.000 0.0000 24.320 31.560 39.620 
219 "O30" 70.196 20.000 20.000 0.0000 22.190 27.590 35.870 
220 "O12" 70.196 29.804 20.000 0.0000 20.010 23.650 31.770 
221 "R46" 70.196 40.000 20.000 0.0000 17.960 19.980 27.790 
222 "AA13" 70.196 54.902 20.000 0.0000 15.350 15.250 22.490 
223 "W13" 70.196 70.196 20.000 0.0000 13.140 11.440 18.030 
224 "M7" 70.196 85.098 20.000 0.0000 11.450 8.6000 14.610 
225 "AA1" 70.196 100.00 20.000 0.0000 10.020 6.4000 11.780 
226 "V43" 85.098 0.0000 20.000 0.0000 19.660 29.370 41.960 
227 "D30" 85.098 10.196 20.000 0.0000 17.910 25.760 38.150 
228 "R53" 85.098 20.000 20.000 0.0000 16.330 22.510 34.520 
229 "D50" 85.098 29.804 20.000 0.0000 14.730 19.300 30.700 
230 "Z45" 85.098 40.000 20.000 0.0000 13.230 16.320 27.010 
231 "C20" 85.098 54.902 20.000 0.0000 11.300 12.470 22.050 
232 "F21" 85.098 70.196 20.000 0.0000 9.6700 9.3500 17.840 
233 "U45" 85.098 85.098 20.000 0.0000 8.4000 7.0000 14.550 
234 "Y10" 85.098 100.00 20.000 0.0000 7.3300 5.1800 11.820 
235 "T48" 100.00 0.0000 20.000 0.0000 14.050 23.630 40.330 
236 "D53" 100.00 10.196 20.000 0.0000 12.830 20.790 36.740 
237 "E20" 100.00 20.000 20.000 0.0000 11.670 18.130 33.170 
238 "M13" 100.00 29.804 20.000 0.0000 10.550 15.580 29.660 
239 "M40" 100.00 40.000 20.000 0.0000 9.5000 13.210 26.320 
240 "Z31" 100.00 54.902 20.000 0.0000 8.1000 10.100 21.640 
241 "L6" 100.00 70.196 20.000 0.0000 6.9000 7.5700 17.620 
242 "E16" 100.00 85.098 20.000 0.0000 5.9800 5.6700 14.470 
243 "X9" 100.00 100.00 20.000 0.0000 5.2200 4.2000 11.840 
244 "I19" 0.0000 0.0000 29.804 0.0000 76.290 80.780 45.490 
245 "U18" 0.0000 10.196 29.804 0.0000 69.640 70.770 40.820 
246 "A21" 0.0000 20.000 29.804 0.0000 63.470 61.670 36.480 
247 "E5" 0.0000 29.804 29.804 0.0000 57.610 53.040 32.110 
248 "E2" 0.0000 40.000 29.804 0.0000 52.150 45.090 27.870 
249 "X7" 0.0000 54.902 29.804 0.0000 44.940 34.710 21.850 
250 "A49" 0.0000 70.196 29.804 0.0000 38.900 26.490 16.830 
251 "T51" 0.0000 85.098 29.804 0.0000 34.770 20.740 13.120 
252 "B44" 0.0000 100.00 29.804 0.0000 31.460 16.430 10.140 
253 "Y21" 10.196 0.0000 29.804 0.0000 67.860 73.560 44.410 
254 "Y18" 10.196 10.196 29.804 0.0000 62.090 64.640 40.170 
255 "R57" 10.196 20.000 29.804 0.0000 56.730 56.440 35.980 
256 "Q4" 10.196 29.804 29.804 0.0000 51.390 48.450 31.590 
257 "O35" 10.196 40.000 29.804 0.0000 46.360 41.070 27.340 
258 "N51" 10.196 54.902 29.804 0.0000 39.850 31.530 21.510 
259 "T2" 10.196 70.196 29.804 0.0000 34.420 23.980 16.660 
260 "C28" 10.196 85.098 29.804 0.0000 30.730 18.690 13.060 
261 "D18" 10.196 100.00 29.804 0.0000 27.770 14.730 10.160 
262 "D45" 20.000 0.0000 29.804 0.0000 59.420 66.240 43.090 
263 "P26" 20.000 10.196 29.804 0.0000 54.410 58.230 39.030 
264 "M51" 20.000 20.000 29.804 0.0000 49.760 50.910 34.960 
265 "R43" 20.000 29.804 29.804 0.0000 44.940 43.580 30.610 
266 "E49" 20.000 40.000 29.804 0.0000 40.420 36.810 26.440 
267 "Q19" 20.000 54.902 29.804 0.0000 34.740 28.280 20.900 
268 "AA26" 20.000 70.196 29.804 0.0000 30.020 21.510 16.310 
269 "L50" 20.000 85.098 29.804 0.0000 26.700 16.660 12.870 
270 "L48" 20.000 100.00 29.804 0.0000 23.990 12.980 10.080 
271 "F22" 29.804 0.0000 29.804 0.0000 51.100 58.890 41.600 
272 "S31" 29.804 10.196 29.804 0.0000 46.760 51.710 37.680 
273 "AA4" 29.804 20.000 29.804 0.0000 42.790 45.230 33.780 
274 "Q50" 29.804 29.804 29.804 0.0000 38.690 38.760 29.720 
275 "I11" 29.804 40.000 29.804 0.0000 34.810 32.760 25.820 
276 "X24" 29.804 54.902 29.804 0.0000 29.830 25.090 20.450 
277 "R24" 29.804 70.196 29.804 0.0000 25.670 19.000 15.980 
278 "V15" 29.804 85.098 29.804 0.0000 22.780 14.630 12.670 
279 "M52" 29.804 100.00 29.804 0.0000 20.420 11.310 9.9900 
280 "U48" 40.000 0.0000 29.804 0.0000 43.450 52.000 40.160 
281 "O5" 40.000 10.196 29.804 0.0000 39.710 45.600 36.380 
282 "Y16" 40.000 20.000 29.804 0.0000 36.340 39.880 32.650 
283 "U57" 40.000 29.804 29.804 0.0000 32.920 34.240 28.910 
284 "I3" 40.000 40.000 29.804 0.0000 29.650 28.990 25.280 
285 "E47" 40.000 54.902 29.804 0.0000 25.340 22.140 20.070 
286 "V36" 40.000 70.196 29.804 0.0000 21.730 16.690 15.720 
287 "I54" 40.000 85.098 29.804 0.0000 19.230 12.780 12.520 
288 "O15" 40.000 100.00 29.804 0.0000 17.200 9.8200 9.9400 
289 "J51" 54.902 0.0000 29.804 0.0000 33.680 42.990 38.300 
290 "C39" 54.902 10.196 29.804 0.0000 30.740 37.650 34.740 
291 "D25" 54.902 20.000 29.804 0.0000 28.090 32.910 31.290 
292 "M36" 54.902 29.804 29.804 0.0000 25.370 28.210 27.700 
293 "H29" 54.902 40.000 29.804 0.0000 22.800 23.860 24.250 
294 "W44" 54.902 54.902 29.804 0.0000 19.570 18.300 19.520 
295 "M10" 54.902 70.196 29.804 0.0000 16.850 13.830 15.540 
296 "S7" 54.902 85.098 29.804 0.0000 14.830 10.510 12.520 
297 "T31" 54.902 100.00 29.804 0.0000 13.130 7.9500 10.040 
298 "O48" 70.196 0.0000 29.804 0.0000 25.400 35.120 36.620 
299 "W33" 70.196 10.196 29.804 0.0000 23.170 30.740 33.270 
300 "U22" 70.196 20.000 29.804 0.0000 21.120 26.850 30.070 
301 "Y24" 70.196 29.804 29.804 0.0000 19.020 22.990 26.610 
302 "U55" 70.196 40.000 29.804 0.0000 17.060 19.420 23.300 
303 "I21" 70.196 54.902 29.804 0.0000 14.730 14.970 19.020 
304 "R3" 70.196 70.196 29.804 0.0000 12.750 11.360 15.400 
305 "I16" 70.196 85.098 29.804 0.0000 11.160 8.5800 12.540 
306 "A34" 70.196 100.00 29.804 0.0000 9.7800 6.4000 10.150 
307 "B54" 85.098 0.0000 29.804 0.0000 18.470 28.540 35.270 
308 "A5" 85.098 10.196 29.804 0.0000 16.860 25.020 32.140 
309 "R14" 85.098 20.000 29.804 0.0000 15.370 21.850 29.080 
310 "C34" 85.098 29.804 29.804 0.0000 13.860 18.740 25.870 
311 "J31" 85.098 40.000 29.804 0.0000 12.450 15.870 22.800 
312 "N45" 85.098 54.902 29.804 0.0000 10.740 12.230 18.720 
313 "E41" 85.098 70.196 29.804 0.0000 9.2800 9.2700 15.250 
314 "I9" 85.098 85.098 29.804 0.0000 8.1000 6.9800 12.500 
315 "S39" 85.098 100.00 29.804 0.0000 7.0900 5.1700 10.190 
316 "P6" 100.00 0.0000 29.804 0.0000 12.990 22.890 34.020 
317 "N31" 100.00 10.196 29.804 0.0000 11.870 20.140 31.110 
318 "P4" 100.00 20.000 29.804 0.0000 10.830 17.600 28.160 
319 "T37" 100.00 29.804 29.804 0.0000 9.8200 15.150 25.230 
320 "S40" 100.00 40.000 29.804 0.0000 8.8600 12.890 22.430 
321 "K27" 100.00 54.902 29.804 0.0000 7.5900 9.9100 18.480 
322 "T26" 100.00 70.196 29.804 0.0000 6.5100 7.4800 15.080 
323 "H32" 100.00 85.098 29.804 0.0000 5.6700 5.6300 12.430 
324 "O46" 100.00 100.00 29.804 0.0000 4.9700 4.1800 10.210 
325 "P49" 0.0000 0.0000 40.000 0.0000 74.390 79.200 36.970 
326 "P5" 0.0000 10.196 40.000 0.0000 67.990 69.470 33.260 
327 "H20" 0.0000 20.000 40.000 0.0000 61.920 60.440 29.670 
328 "S24" 0.0000 29.804 40.000 0.0000 56.270 52.000 26.160 
329 "S21" 0.0000 40.000 40.000 0.0000 51.050 44.280 22.780 
330 "P44" 0.0000 54.902 40.000 0.0000 44.100 34.130 17.920 
331 "X56" 0.0000 70.196 40.000 0.0000 38.280 26.120 13.860 
332 "C4" 0.0000 85.098 40.000 0.0000 34.370 20.590 10.880 
333 "O34" 0.0000 100.00 40.000 0.0000 31.270 16.470 8.4900 
334 "E31" 10.196 0.0000 40.000 0.0000 66.000 72.030 36.270 
335 "H57" 10.196 10.196 40.000 0.0000 60.440 63.300 32.890 
336 "O20" 10.196 20.000 40.000 0.0000 55.270 55.310 29.430 
337 "B40" 10.196 29.804 40.000 0.0000 50.100 47.480 25.830 
338 "X49" 10.196 40.000 40.000 0.0000 45.250 40.270 22.370 
339 "V34" 10.196 54.902 40.000 0.0000 39.050 31.050 17.670 
340 "Q1" 10.196 70.196 40.000 0.0000 33.900 23.770 13.770 
341 "C6" 10.196 85.098 40.000 0.0000 30.390 18.640 10.880 
342 "A46" 10.196 100.00 40.000 0.0000 27.580 14.780 8.5600 
343 "Y15" 20.000 0.0000 40.000 0.0000 57.590 64.730 35.140 
344 "N53" 20.000 10.196 40.000 0.0000 52.850 56.990 32.000 
345 "AA23" 20.000 20.000 40.000 0.0000 48.380 49.850 28.590 
346 "Y35" 20.000 29.804 40.000 0.0000 43.740 42.660 25.010 
347 "C9" 20.000 40.000 40.000 0.0000 39.390 36.060 21.630 
348 "Y46" 20.000 54.902 40.000 0.0000 34.000 27.850 17.190 
349 "L22" 20.000 70.196 40.000 0.0000 29.520 21.330 13.510 
350 "C36" 20.000 85.098 40.000 0.0000 26.380 16.620 10.760 
351 "M34" 20.000 100.00 40.000 0.0000 23.800 13.020 8.5200 
352 "S4" 29.804 0.0000 40.000 0.0000 49.550 57.650 34.070 
353 "Z33" 29.804 10.196 40.000 0.0000 45.360 50.640 31.000 
354 "Q46" 29.804 20.000 40.000 0.0000 41.620 44.370 27.750 
355 "A18" 29.804 29.804 40.000 0.0000 37.650 38.000 24.370 
356 "M23" 29.804 40.000 40.000 0.0000 33.870 32.100 21.180 
357 "L43" 29.804 54.902 40.000 0.0000 29.130 24.710 16.880 
358 "T40" 29.804 70.196 40.000 0.0000 25.190 18.840 13.300 
359 "G3" 29.804 85.098 40.000 0.0000 22.450 14.590 10.630 
360 "P8" 29.804 100.00 40.000 0.0000 20.210 11.340 8.4500 
361 "K34" 40.000 0.0000 40.000 0.0000 42.140 51.000 33.060 
362 "P30" 40.000 10.196 40.000 0.0000 38.440 44.670 30.030 
363 "O45" 40.000 20.000 40.000 0.0000 35.330 39.180 26.960 
364 "R6" 40.000 29.804 40.000 0.0000 31.990 33.600 23.810 
365 "L41" 40.000 40.000 40.000 0.0000 28.770 28.400 20.790 
366 "M18" 40.000 54.902 40.000 0.0000 24.680 21.800 16.630 
367 "K32" 40.000 70.196 40.000 0.0000 21.270 16.540 13.140 
368 "S50" 40.000 85.098 40.000 0.0000 18.910 12.740 10.540 
369 "G39" 40.000 100.00 40.000 0.0000 16.990 9.8300 8.4100 
370 "G20" 54.902 0.0000 40.000 0.0000 32.390 42.020 31.550 
371 "P34" 54.902 10.196 40.000 0.0000 29.520 36.740 28.640 
372 "P50" 54.902 20.000 40.000 0.0000 27.010 32.130 25.760 
373 "H9" 54.902 29.804 40.000 0.0000 24.380 27.510 22.780 
374 "Z7" 54.902 40.000 40.000 0.0000 21.910 23.260 19.950 
375 "V32" 54.902 54.902 40.000 0.0000 18.920 17.960 16.180 
376 "S34" 54.902 70.196 40.000 0.0000 16.410 13.690 13.000 
377 "C29" 54.902 85.098 40.000 0.0000 14.520 10.470 10.540 
378 "X42" 54.902 100.00 40.000 0.0000 12.920 7.9500 8.4900 
379 "Y20" 70.196 0.0000 40.000 0.0000 24.130 34.160 30.170 
380 "A42" 70.196 10.196 40.000 0.0000 22.000 29.870 27.400 
381 "V6" 70.196 20.000 40.000 0.0000 20.030 26.030 24.680 
382 "A47" 70.196 29.804 40.000 0.0000 18.020 22.270 21.860 
383 "I57" 70.196 40.000 40.000 0.0000 16.190 18.840 19.200 
384 "C25" 70.196 54.902 40.000 0.0000 14.100 14.650 15.780 
385 "Q57" 70.196 70.196 40.000 0.0000 12.330 11.240 12.880 
386 "E25" 70.196 85.098 40.000 0.0000 10.860 8.5400 10.550 
