ref/ECI2002R.ti2
CTI2

DESCRIPTOR "Argyll Calibration Target chart information 2"
# ECI2002 Random CMYK chart, 1485 patches.
ORIGINATOR "Argyll printtarg"
CREATED "Thu Aug 11 22:19:15 2005"
KEYWORD "TARGET_INSTRUMENT"
TARGET_INSTRUMENT "GretagMacbeth SpectroScan"
KEYWORD "MULTI_DIM_STEPS"
MULTI_DIM_STEPS "2"
KEYWORD "APPROX_WHITE_POINT"
APPROX_WHITE_POINT "96.420000 100.000000 82.490000"
KEYWORD "COLOR_REP"
COLOR_REP "CMYK"
KEYWORD "STEPS_IN_PASS"
STEPS_IN_PASS "33"
KEYWORD "PASSES_IN_STRIPS"
PASSES_IN_STRIPS "j"
KEYWORD "STRIP_INDEX_PATTERN"
STRIP_INDEX_PATTERN "A-Z, 2-9;A-X,2A-9Z"
KEYWORD "PATCH_INDEX_PATTERN"
PATCH_INDEX_PATTERN "0-9,@-9,@-9;1-999"

KEYWORD "SAMPLE_LOC"
NUMBER_OF_FIELDS 9
BEGIN_DATA_FORMAT
SAMPLE_ID SAMPLE_LOC CMYK_C CMYK_M CMYK_Y CMYK_K XYZ_X XYZ_Y XYZ_Z 
END_DATA_FORMAT

NUMBER_OF_SETS 1485
BEGIN_DATA
810	"A1"	10	20	20	20	42.793	42.608	32.296
1369	"A2"	80	65	65	0	9.5005	10.178	7.8087
1393	"A3"	100	85	85	80	1.9086	2.003	1.1906
1427	"A4"	0	7	7	0	76.857	77.978	63.869
1387	"A5"	100	85	85	60	2.2422	2.4721	1.6188
1377	"A6"	10	6	6	10	60.778	63.216	55.806
558	"A7"	85	100	70	0	6.1175	5.0394	4.4819
1381	"A8"	10	6	6	20	50.129	52.184	46.198
1394	"A9"	80	65	65	80	2.3235	2.4083	1.599
1434	"A10"	0	7	7	7	69.874	71.047	58.514
1388	"A11"	80	65	65	60	3.437	3.6144	2.5883
1392	"A12"	10	6	6	60	16.236	16.953	14.978
1382	"A13"	80	65	65	40	5.2618	5.5902	4.1157
93	"A14"	10	20	10	0	60.498	59.465	51.051
230	"A15"	85	40	20	0	13.639	16.589	27.468
1430	"A16"	0	7	0	7	71.224	72.097	64.03
1395	"A17"	60	45	45	80	3.041	3.1902	2.4497
1376	"A18"	20	12	12	10	49.823	52.06	45.983
1389	"A19"	60	45	45	60	5.2975	5.5898	4.7403
1380	"A20"	20	12	12	20	41.45	43.378	38.352
1424	"A21"	3	3	3	3	75.838	78.392	68.023
1385	"A22"	20	12	12	40	25.493	26.703	23.726
1378	"A23"	60	45	45	20	14.211	15.169	12.762
1391	"A24"	20	12	12	60	13.215	13.844	12.297
1420	"A25"	3	3	0	3	76.251	78.631	70.15
1397	"A26"	20	12	12	80	5.8519	6.1281	5.184
210	"A27"	55	20	20	0	29.639	34.115	38.205
101	"A28"	20	10	10	0	58.653	61.601	55.595
1432	"A29"	0	0	7	7	74.374	77.494	62.933
1375	"A30"	40	27	27	10	30.415	32.13	28.372
1384	"A31"	40	27	27	40	16.266	17.237	15.144
1379	"A32"	40	27	27	20	25.674	27.176	23.921
1	"A33"	0	0	0	0	83.532	86.556	75.658
970	"B1"	100	100	0	40	3.6335	2.7779	7.9686
1049	"B2"	0	70	100	40	16.486	12.087	1.9347
968	"B3"	100	40	0	40	5.7755	7.1079	16.701
336	"B4"	10	20	40	0	55.595	55.81	29.655
479	"B5"	100	10	55	0	9.9812	18.831	18.457
560	"B6"	100	10	70	0	8.8992	17.985	12.749
328	"B7"	0	30	40	0	56.678	52.472	26.359
564	"B8"	100	55	70	0	5.8864	8.9485	7.8006
974	"B9"	0	70	20	40	18.626	13.239	10.215
1045	"B10"	100	100	70	40	2.8294	2.7651	2.6045
234	"B11"	85	100	20	0	7.5253	5.3012	12.047
999	"B12"	0	70	40	40	17.721	12.765	7.0851
1018	"B13"	100	40	40	40	4.5218	6.511	8.8453
997	"B14"	0	20	40	40	27.374	27.152	13.911
641	"B15"	100	10	85	0	8.1959	17.374	8.6931
849	"B16"	10	100	40	20	20.419	11.252	6.8398
433	"B17"	30	0	55	0	47.637	56.166	23.691
279	"B18"	30	100	30	0	20.49	11.372	10.058
469	"B19"	85	0	55	0	16.124	26.789	20.762
315	"B20"	85	100	30	0	7.2433	5.2818	10.282
1046	"B21"	0	0	100	40	28.466	31.033	3.3861
955	"B22"	20	100	0	40	11.794	6.4646	7.5603
1056	"B23"	40	0	100	40	16.346	20.623	3.1537
965	"B24"	70	100	0	40	5.7639	3.7213	7.6967
1066	"B25"	100	0	100	40	4.1162	8.961	3.2855
422	"B26"	10	85	55	0	30.135	18.78	7.901
887	"B27"	20	10	70	20	36.357	39.95	11.445
458	"B28"	55	85	55	0	14.013	10.389	7.6421
899	"B29"	70	10	70	20	14.937	21.331	10.227
740	"B30"	10	70	0	20	26.948	18.819	20.02
911	"B31"	0	10	100	20	43.802	45.594	4.5306
1265	"B32"	40	100	0	100	2.0055	1.5286	1.1038
905	"B33"	100	10	70	20	6.9562	13.709	9.7649
1061	"C1"	70	0	100	40	9.2036	14.115	3.1614
952	"C2"	20	20	0	40	24.491	24.553	25.45
1063	"C3"	70	40	100	40	6.7295	8.3357	2.4606
358	"C4"	30	70	40	0	25.322	19.034	13.417
720	"C5"	85	100	100	0	5.6081	4.8531	2.2834
135	"C6"	55	100	10	0	13.763	8.0611	13.747
350	"C7"	20	85	40	0	26.724	17.011	10.976
384	"C8"	70	55	40	0	14.077	14.733	15.901
1027	"C9"	20	20	70	40	20.476	21.648	6.6864
986	"C10"	70	0	20	40	12.854	17.116	20.559
389	"C11"	85	10	40	0	16.298	24.777	26.866
1002	"C12"	20	20	40	40	21.604	22.456	13.304
1013	"C13"	70	40	40	40	7.9577	9.151	9.2125
1004	"C14"	20	70	40	40	13.987	10.47	6.8252
216	"C15"	55	100	20	0	13.4	7.9938	11.912
728	"C16"	100	85	100	0	4.0841	5.1036	2.7965
471	"C17"	85	20	55	0	13.49	20.624	17.26
457	"C18"	55	70	55	0	15.752	13.406	9.2268
435	"C19"	30	20	55	0	40.149	43.322	19.482
421	"C20"	10	70	55	0	33.517	23.678	9.8153
400	"C21"	100	30	40	0	9.4072	14.991	21.358
186	"C22"	20	55	20	0	35.935	29.1	25.365
616	"C23"	55	30	85	0	21.553	25.496	7.2393
222	"C24"	70	55	20	0	15.6	15.466	23.084
580	"C25"	10	30	85	0	46.288	44.489	7.4927
1267	"C26"	100	40	0	100	1.3818	1.5205	1.8283
935	"C27"	70	10	100	20	13.917	20.374	4.265
1261	"C28"	0	40	0	100	2.8301	2.5695	1.9105
918	"C29"	10	20	100	20	36.334	37.277	4.1001
474	"C30"	85	55	55	0	9.5771	11.612	11.315
452	"C31"	55	10	55	0	28.107	35.803	20.187
438	"C32"	30	55	55	0	28.453	24.407	11.952
416	"C33"	10	10	55	0	58.641	61.983	22.575
960	"D1"	40	100	0	40	8.982	5.1483	7.5676
1059	"D2"	40	70	100	40	9.3594	7.7211	1.9254
958	"D3"	40	40	0	40	15.606	14.83	19.238
372	"D4"	55	20	40	0	27.182	32.439	26.236
370	"D5"	55	0	40	0	32.564	42.302	31.907
362	"D6"	40	10	40	0	39.04	45.288	30.422
364	"D7"	40	30	40	0	32.681	34.373	24.474
366	"D8"	40	55	40	0	24.752	21.975	16.766
984	"D9"	40	70	20	40	11.209	8.7933	9.4358
1035	"D10"	40	100	70	40	8.2908	5.2998	2.5581
198	"D11"	30	100	20	0	20.728	11.36	11.887
1009	"D12"	40	70	40	40	10.342	8.24	6.5236
1008	"D13"	40	40	40	40	13.263	13.221	9.9237
1007	"D14"	40	20	40	40	15.983	17.734	12.478
371	"D15"	55	10	40	0	29.797	37.094	29.054
419	"D16"	10	40	55	0	44.092	39.582	15.619
437	"D17"	30	40	55	0	32.767	31.468	14.757
455	"D18"	55	40	55	0	21.173	22.9	14.519
473	"D19"	85	40	55	0	10.975	15.009	13.636
150	"D20"	85	55	10	0	12.293	12.909	26.065
1048	"D21"	0	40	100	40	20.719	18.667	2.3797
953	"D22"	20	40	0	40	20.382	18.42	20.1
1058	"D23"	40	40	100	40	11.607	11.948	2.4183
963	"D24"	70	40	0	40	9.8391	10.374	17.803
1068	"D25"	100	40	100	40	3.3945	5.7942	2.5531
418	"D26"	10	30	55	0	48.669	46.539	17.988
436	"D27"	30	30	55	0	36.428	37.272	17.106
454	"D28"	55	30	55	0	23.62	27.183	16.565
76	"D29"	100	30	0	0	13.039	16.997	41.354
738	"D30"	10	20	0	20	44.794	43.834	42.663
1278	"D31"	0	0	100	100	2.572	2.8437	0.98565
1263	"D32"	40	0	0	100	3.6855	4.1078	4.037
1284	"D33"	100	0	100	100	1.2048	1.7593	0.98423
1051	"E1"	20	0	100	40	22.537	26.074	3.287
962	"E2"	70	20	0	40	11.811	13.835	22.408
1053	"E3"	20	40	100	40	16.09	15.286	2.4195
394	"E4"	85	70	40	0	9.0571	9.2955	12.883
684	"E5"	30	100	100	0	19.136	11.158	2.267
99	"E6"	10	100	10	0	28.387	14.824	13.952
386	"E7"	70	85	40	0	10.927	8.6924	10.65
348	"E8"	20	55	40	0	34.295	28.185	17.407
1037	"E9"	70	20	70	40	8.742	11.892	6.0601
976	"E10"	20	0	20	40	27.708	30.572	23.903
353	"E11"	30	10	40	0	45.851	51.24	31.303
1012	"E12"	70	20	40	40	9.5758	12.338	11.494
1003	"E13"	20	40	40	40	17.982	16.763	10.473
1014	"E14"	70	70	40	40	6.3807	5.873	6.3043
180	"E15"	10	100	20	0	28.092	14.8	12.13
1042	"E16"	100	20	70	40	4.4208	8.0398	5.8433
989	"E17"	70	70	20	40	7.153	6.3562	9.1678
1032	"E18"	40	20	70	40	15.006	17.115	6.3506
979	"E19"	20	70	20	40	14.885	11.021	9.8194
1022	"E20"	0	20	70	40	26.023	26.124	6.893
465	"E21"	70	55	55	0	13.34	14.247	11.521
443	"E22"	40	10	55	0	37.025	43.64	20.961
429	"E23"	20	55	55	0	33.356	27.593	12.197
407	"E24"	0	10	55	0	66.105	68.086	22.708
847	"E25"	10	40	40	20	33.266	30.041	17.13
791	"E26"	70	10	10	20	19.449	24.461	34.957
1282	"E27"	40	40	100	100	2.0252	2.1915	0.93621
779	"E28"	20	10	10	20	42.453	44.687	40.368
920	"E29"	10	70	100	20	23.705	17.325	2.4843
470	"E30"	85	10	55	0	14.757	23.58	19.012
456	"E31"	55	55	55	0	18.248	17.687	11.697
434	"E32"	30	10	55	0	43.729	49.397	21.567
420	"E33"	10	55	55	0	38.378	30.8	12.538
950	"F1"	0	100	0	40	14.72	7.8407	7.6846
1069	"F2"	100	70	100	40	2.9619	3.9055	2.0486
948	"F3"	0	40	0	40	25.204	21.959	20.959
481	"F4"	100	30	55	0	8.3475	14.293	15.071
334	"F5"	10	0	40	0	66.412	72.64	36.369
326	"F6"	0	10	40	0	68.338	69.993	33.426
562	"F7"	100	30	70	0	7.442	13.62	10.455
330	"F8"	0	55	40	0	44.42	34.552	18.22
994	"F9"	100	70	20	40	4.1074	4.3786	8.8089
1025	"F10"	0	100	70	40	14.075	8.072	2.5768
813	"F11"	10	100	20	20	20.591	11.076	9.279
1019	"F12"	100	70	40	40	3.6876	4.2309	6.2137
998	"F13"	0	40	40	40	23.042	20.474	11.041
1017	"F14"	100	20	40	40	5.3212	8.6332	11.014
335	"F15"	10	10	40	0	61.004	64.009	33.147
971	"F16"	0	0	20	40	34.702	36.66	25.315
1030	"F17"	20	100	70	40	11.115	6.6577	2.5397
981	"F18"	40	0	20	40	20.866	24.502	22.417
1040	"F19"	70	100	70	40	5.0452	3.8003	2.5712
991	"F20"	100	0	20	40	7.0357	11.405	18.83
848	"F21"	10	70	40	20	25.346	18.217	10.84
851	"F22"	20	10	40	20	39.003	42.17	24.128
431	"F23"	20	85	55	0	26.099	16.712	7.7591
863	"F24"	70	10	40	20	16.884	22.769	20.63
467	"F25"	70	85	55	0	10.306	8.4104	7.6211
875	"F26"	0	10	70	20	46.193	47.991	11.698
440	"F27"	30	85	55	0	22.165	14.664	7.6754
893	"F28"	40	10	70	20	26.604	31.587	10.802
476	"F29"	85	85	55	0	7.4139	6.8546	7.6769
731	"F30"	0	10	0	20	54.196	54.229	48.696
1280	"F31"	0	100	100	100	2.4602	2.0877	0.85588
749	"F32"	40	10	0	20	32.888	36.102	43.757
1286	"F33"	100	100	100	100	1.6821	1.6669	0.84474
91	"G1"	10	0	10	0	72.655	77.501	63.478
151	"G2"	85	70	10	0	10.431	9.6758	21.099
127	"G3"	55	0	10	0	36.695	45.049	54.358
115	"G4"	30	70	10	0	27.027	19.626	22.285
74	"G5"	100	10	0	0	15.768	22.473	51.333
799	"G6"	100	40	10	20	8.0418	10.464	23.122
901	"G7"	70	40	70	20	11.548	14.047	7.522
787	"G8"	40	40	10	20	24.018	23.121	26.467
889	"G9"	20	40	70	20	27.785	26.194	8.1213
769	"G10"	0	40	10	20	39.7	34.449	29.069
92	"G11"	10	10	10	0	66.392	68.104	57.186
152	"G12"	85	85	10	0	9.0576	7.294	17.214
128	"G13"	55	10	10	0	33.535	39.592	49.444
116	"G14"	30	85	10	0	23.803	15.085	17.589
236	"G15"	100	10	20	0	13.328	21.135	37.261
323	"G16"	100	85	30	0	5.8909	5.7585	12.626
587	"G17"	20	10	85	0	48.263	52.997	9.1566
214	"G18"	55	70	20	0	17.587	14.191	18.765
623	"G19"	70	10	85	0	18.622	27.328	8.567
178	"G20"	10	70	20	0	35.423	24.586	20.135
164	"G21"	0	10	20	0	72.096	72.884	50.177
224	"G22"	70	85	20	0	11.621	8.7959	15.019
200	"G23"	40	10	20	0	41.66	47.104	43.962
188	"G24"	20	85	20	0	27.325	17.019	15.415
398	"G25"	100	10	40	0	11.311	19.793	26.198
1277	"G26"	100	100	40	100	1.6231	1.463	1.0683
815	"G27"	20	10	20	20	41.466	44.041	34.957
1271	"G28"	0	100	40	100	2.3835	1.8323	0.95284
827	"G29"	70	10	20	20	18.625	23.963	30.049
233	"G30"	85	85	20	0	8.7078	7.2232	14.921
596	"G31"	30	10	85	0	41.074	46.949	8.98
197	"G32"	30	85	20	0	23.387	14.972	15.204
632	"G33"	85	10	85	0	12.726	21.931	8.5728
873	"H1"	100	100	40	20	4.0344	3.542	6.6923
826	"H2"	70	0	20	20	20.193	26.962	32.911
861	"H3"	40	100	40	20	13.132	7.8145	6.7117
814	"H4"	20	0	20	20	45.011	49.644	38.435
843	"H5"	0	100	40	20	22.911	12.431	6.8012
87	"H6"	0	55	10	0	46.808	35.876	30.627
139	"H7"	70	30	10	0	21.203	24.321	37.669
123	"H8"	40	55	10	0	27.068	23.111	28.104
103	"H9"	20	30	10	0	47.872	45.713	43.191
159	"H10"	100	55	10	0	9.06	10.557	25.56
734	"H11"	0	70	0	20	30.09	20.627	20.392
924	"H12"	20	20	100	20	31.964	33.847	4.0427
752	"H13"	40	70	0	20	17.978	13.534	19.055
936	"H14"	70	20	100	20	12.98	18.161	3.9702
764	"H15"	100	70	0	20	6.3548	6.3278	17.789
176	"H16"	10	40	20	0	47.705	42.092	33.062
228	"H17"	85	20	20	0	16.859	22.879	35.148
212	"H18"	55	40	20	0	23.936	24.63	29.499
192	"H19"	30	20	20	0	44.961	47.088	41.589
321	"H20"	100	55	30	0	7.8525	10.036	18.64
967	"H21"	100	20	0	40	6.8416	9.3463	20.683
1064	"H22"	70	70	100	40	5.5461	5.4696	1.964
957	"H23"	40	20	0	40	18.62	19.639	24.192
1054	"H24"	20	70	100	40	12.884	9.8577	1.9285
947	"H25"	0	20	0	40	30.469	29.407	26.979
177	"H26"	10	55	20	0	41.029	32.359	25.991
211	"H27"	55	30	20	0	26.724	29.193	33.776
213	"H28"	55	55	20	0	20.573	18.917	23.762
175	"H29"	10	30	20	0	53.082	49.78	38.239
775	"H30"	10	40	10	20	35.701	31.677	28.433
1272	"H31"	40	0	40	100	3.1261	3.5912	2.1998
1273	"H32"	40	40	40	100	1.9912	2.0029	1.3252
774	"H33"	10	20	10	20	43.922	43.41	37.409
95	"I1"	10	40	10	0	48.895	42.882	38.427
147	"I2"	85	20	10	0	17.934	23.473	41.104
131	"I3"	55	40	10	0	24.753	25.048	34.193
111	"I4"	30	20	10	0	45.998	47.606	47.873
78	"I5"	100	55	0	0	9.7782	10.862	29.546
800	"I6"	100	70	10	20	6.0042	6.2242	15.688
900	"I7"	70	20	70	20	13.87	18.947	9.4115
788	"I8"	40	70	10	20	17.773	13.576	16.768
888	"I9"	20	20	70	20	33.503	35.29	10.418
770	"I10"	0	70	10	20	29.596	20.42	17.817
96	"I11"	10	55	10	0	41.647	32.596	29.968
148	"I12"	85	30	10	0	16.114	20.056	36.433
132	"I13"	55	55	10	0	21.206	19.17	27.442
112	"I14"	30	30	10	0	41.422	40.699	42.001
240	"I15"	100	55	20	0	8.4259	10.278	22.043
319	"I16"	100	30	30	0	10.129	15.397	25.408
591	"I17"	20	55	85	0	32	26.649	5.4117
1396	"I18"	40	27	27	80	4.0894	4.3142	3.5719
627	"I19"	70	55	85	0	12.285	13.572	5.4121
174	"I20"	10	20	20	0	58.796	58.174	43.686
168	"I21"	0	55	20	0	46.124	35.582	26.484
220	"I22"	70	30	20	0	20.264	23.866	32.415
204	"I23"	40	55	20	0	26.384	22.796	24.217
184	"I24"	20	30	20	0	46.704	44.962	37.252
402	"I25"	100	55	40	0	7.331	9.8658	15.652
1275	"I26"	100	0	40	100	1.2309	1.6899	1.6818
1270	"I27"	0	40	40	100	3.2681	3.0735	1.5546
1269	"I28"	0	0	40	100	2.9669	3.1625	1.83
1276	"I29"	100	40	40	100	1.4023	1.624	1.4424
229	"I30"	85	30	20	0	15.201	19.611	31.303
600	"I31"	30	55	85	0	27.177	23.519	5.3512
193	"I32"	30	30	20	0	40.3	40.044	36.324
636	"I33"	85	55	85	0	8.5285	11.006	5.5658
944	"J1"	100	70	100	20	3.8385	5.3703	2.7357
756	"J2"	70	20	0	20	18.512	21.78	36.238
932	"J3"	40	70	100	20	15.288	12.495	2.4705
744	"J4"	20	20	0	20	39.781	39.757	41.498
914	"J5"	0	70	100	20	26.393	18.799	2.4983
83	"J6"	0	10	10	0	73.893	74.191	58.471
143	"J7"	70	85	10	0	11.962	8.8492	17.294
119	"J8"	40	10	10	0	43.033	47.993	51.622
107	"J9"	20	85	10	0	27.765	17.167	17.844
155	"J10"	100	10	10	0	14.44	21.781	43.785
805	"J11"	0	40	20	20	38.936	33.996	25.233
853	"J12"	20	40	40	20	29.539	27.398	16.776
823	"J13"	40	40	20	20	23.556	22.971	23.03
865	"J14"	70	40	40	20	12.596	14.604	14.68
835	"J15"	100	40	20	20	7.5128	10.212	20.015
172	"J16"	10	0	20	0	70.716	76.081	54.653
232	"J17"	85	70	20	0	9.9958	9.5404	18.27
208	"J18"	55	0	20	0	35.457	44.307	46.319
196	"J19"	30	70	20	0	26.484	19.44	19.264
317	"J20"	100	10	30	0	12.264	20.462	31.235
404	"J21"	100	85	40	0	5.5846	5.711	10.662
182	"J22"	20	10	20	0	56.852	60.272	47.551
620	"J23"	55	85	85	0	13.193	10.033	3.8012
218	"J24"	70	10	20	0	24.73	31.961	40.398
584	"J25"	10	85	85	0	29.365	18.455	3.8402
173	"J26"	10	10	20	0	64.663	66.846	49.307
215	"J27"	55	85	20	0	15.327	10.768	15.072
209	"J28"	55	10	20	0	32.457	38.971	42.15
179	"J29"	10	85	20	0	31.401	19.157	15.756
803	"J30"	0	10	20	20	51.767	52.562	36.611
1274	"J31"	40	100	40	100	2.0691	1.6856	1.0061
821	"J32"	40	10	20	20	31.147	35.136	32.826
776	"J33"	10	70	10	20	26.657	18.779	17.602
1120	"K1"	100	100	20	60	2.7153	2.3352	3.7231
1161	"K2"	70	0	70	60	5.2448	7.7346	3.9283
1110	"K3"	40	100	20	60	5.3374	3.4243	3.4798
1151	"K4"	20	0	70	60	11.544	13.308	4.2438
1100	"K5"	0	100	20	60	8.2906	4.8151	3.5443
721	"K6"	100	0	100	0	8.1076	18.912	5.7582
63	"K7"	70	100	0	0	10.674	6.4968	15.82
685	"K8"	40	0	100	0	36.515	45.894	5.8715
27	"K9"	20	100	0	0	25.023	13.172	15.983
649	"K10"	0	0	100	0	67.831	73.183	6.3566
397	"K11"	100	0	40	0	12.306	22.492	28.548
387	"K12"	70	100	40	0	9.5791	6.4536	8.6392
361	"K13"	40	0	40	0	42.364	51.362	33.35
351	"K14"	20	100	40	0	23.924	13.131	8.6622
325	"K15"	0	0	40	0	74.951	79.955	36.787
73	"K16"	100	0	0	0	17.316	25.666	56.941
711	"K17"	70	100	100	0	8.1065	6.0234	2.3028
37	"K18"	40	0	0	0	48.74	55.767	67.464
675	"K19"	20	100	100	0	22.791	12.85	2.2624
1367	"K20"	0	0	0	0	83.532	86.556	75.658
1170	"K21"	100	100	70	60	2.2415	2.1937	1.767
1111	"K22"	70	0	20	60	6.7365	8.9202	10.488
1160	"K23"	40	100	70	60	4.9604	3.4503	1.6823
1101	"K24"	20	0	20	60	13.925	15.376	12.153
1150	"K25"	0	100	70	60	7.7356	4.82	1.7333
1268	"K26"	100	100	0	100	1.586	1.3361	1.2371
929	"K27"	40	10	100	20	25.041	30.091	4.2447
1262	"K28"	0	100	0	100	2.3217	1.6655	1.0172
916	"K29"	10	0	100	20	42.296	47.086	4.8745
54	"K30"	55	100	0	0	14.16	8.1322	15.9
614	"K31"	55	10	85	0	25.842	33.805	8.7239
18	"K32"	10	100	0	0	28.671	14.852	16.045
578	"K33"	10	10	85	0	55.572	59.114	9.4388
3	"L1"	0	20	0	0	69.597	66.565	60.838
673	"L2"	20	70	100	0	27.825	20.432	2.9018
39	"L3"	40	20	0	0	40.572	42.615	53.944
709	"L4"	70	70	100	0	10.2	10.073	3.0376
75	"L5"	100	20	0	0	14.395	19.681	46.296
1149	"L6"	0	70	70	60	8.9749	6.7909	2.3081
1102	"L7"	20	20	20	60	12.058	12.309	10.166
1159	"L8"	40	70	70	60	5.4431	4.5543	2.1995
1112	"L9"	70	20	20	60	5.7816	6.99	8.7996
1169	"L10"	100	70	70	60	2.3761	2.8104	2.2458
327	"L11"	0	20	40	0	62.366	61.062	29.931
349	"L12"	20	70	40	0	29.877	21.69	13.737
363	"L13"	40	20	40	0	35.967	39.85	27.525
385	"L14"	70	70	40	0	12.394	11.372	12.969
399	"L15"	100	20	40	0	10.365	17.364	23.838
1099	"L16"	0	70	20	60	10.103	7.3489	5.5678
1152	"L17"	20	20	70	60	10.044	10.668	3.7279
1109	"L18"	40	70	20	60	6.1706	4.8349	5.1079
1162	"L19"	70	20	70	60	4.6655	6.2353	3.4497
1119	"L20"	100	70	20	60	2.8528	2.9433	4.9122
651	"L21"	0	20	100	0	56.365	55.495	5.0428
25	"L22"	20	70	0	0	31.967	22.387	26.188
687	"L23"	40	20	100	0	31.007	35.545	4.8234
61	"L24"	70	70	0	0	14.307	11.92	24.622
723	"L25"	100	20	100	0	6.9585	14.721	5.1854
170	"L26"	0	85	20	0	35.618	21.393	16.061
598	"L27"	30	30	85	0	34.305	35.444	7.2538
206	"L28"	40	85	20	0	19.826	13.094	15.005
634	"L29"	85	30	85	0	10.637	16.574	7.1922
739	"L30"	10	40	0	20	36.361	31.929	32.553
923	"L31"	20	10	100	20	34.532	38.16	4.3913
1264	"L32"	40	40	0	100	3.025	2.9233	2.7653
941	"L33"	100	10	100	20	5.8796	12.705	4.4488
725	"M1"	100	40	100	0	5.6657	10.768	4.437
59	"M2"	70	40	0	0	19.82	20.835	38.153
689	"M3"	40	40	100	0	25.449	25.81	3.9199
23	"M4"	20	40	0	0	43.988	39.086	43.242
653	"M5"	0	40	100	0	46.826	40.833	4.0776
401	"M6"	100	40	40	0	8.508	12.792	19.04
383	"M7"	70	40	40	0	15.911	18.715	19.337
365	"M8"	40	40	40	0	28.9	28.624	21.058
347	"M9"	20	40	40	0	39.477	36.198	21.787
329	"M10"	0	40	40	0	51.464	44.787	23.357
1118	"M11"	100	40	20	60	3.2583	4.1229	6.8222
1163	"M12"	70	40	70	60	4.1138	4.892	2.905
1108	"M13"	40	40	20	60	7.7936	7.5097	7.7076
1153	"M14"	20	40	70	60	8.5393	8.172	3.0297
1098	"M15"	0	40	20	60	12.826	11.415	8.5245
77	"M16"	100	40	0	0	11.697	14.469	36.691
707	"M17"	70	40	100	0	13.879	17.302	4.1153
41	"M18"	40	40	0	0	32.737	30.791	41.385
671	"M19"	20	40	100	0	36.014	33.591	3.9651
5	"M20"	0	40	0	0	56.387	48.115	45.856
1168	"M21"	100	40	70	60	2.5594	3.7583	2.8973
1113	"M22"	70	40	20	60	4.8984	5.29	7.0265
1158	"M23"	40	40	70	60	6.4157	6.5513	2.9637
1103	"M24"	20	40	20	60	10.233	9.4169	8.1469
1148	"M25"	0	40	70	60	10.845	9.911	3.1434
1266	"M26"	100	0	0	100	1.2487	1.6429	2.2918
1281	"M27"	40	0	100	100	1.9438	2.3714	0.98627
1260	"M28"	0	0	0	100	2.6842	2.7971	2.1442
919	"M29"	10	40	100	20	30.294	27.803	3.3279
231	"M30"	85	55	20	0	11.711	12.702	22.558
618	"M31"	55	55	85	0	17.046	16.86	5.3492
195	"M32"	30	55	20	0	30.939	25.813	24.749
582	"M33"	10	55	85	0	36.867	29.737	5.4828
7	"N1"	0	70	0	0	41.064	27.7	27.285
669	"N2"	20	20	100	0	43.633	45.789	4.9326
43	"N3"	40	70	0	0	23.633	17.469	25.317
705	"N4"	70	20	100	0	16.392	23.335	4.9379
79	"N5"	100	70	0	0	8.126	7.9858	23.641
1147	"N6"	0	20	70	60	12.587	12.713	3.8151
1104	"N7"	20	70	20	60	8.0904	6.0557	5.3789
1157	"N8"	40	20	70	60	7.5476	8.6054	3.5775
1114	"N9"	70	70	20	60	4.1371	3.6437	4.9376
1167	"N10"	100	20	70	60	2.7694	4.6386	3.3816
331	"N11"	0	70	40	0	38.555	26.426	14.048
345	"N12"	20	20	40	0	48.9	50.47	29.029
367	"N13"	40	70	40	0	21.346	16.675	13.201
381	"N14"	70	20	40	0	20.214	26.349	24.972
403	"N15"	100	70	40	0	6.3393	7.4821	12.814
1097	"N16"	0	20	20	60	15.268	14.982	10.814
1154	"N17"	20	70	70	60	7.1701	5.6409	2.2541
1107	"N18"	40	20	20	60	9.4122	10.149	9.7345
1164	"N19"	70	70	70	60	3.633	3.517	2.2485
1117	"N20"	100	20	20	60	3.6367	5.1854	8.293
655	"N21"	0	70	100	0	36.241	25.005	2.8668
21	"N22"	20	20	0	0	54.93	54.652	57.434
691	"N23"	40	70	100	0	19.499	15.579	2.9145
57	"N24"	70	20	0	0	24.704	28.996	49.5
727	"N25"	100	70	100	0	4.5299	6.5549	3.3469
166	"N26"	0	30	20	0	59.495	54.521	39.124
602	"N27"	30	85	85	0	21.419	14.317	3.7354
202	"N28"	40	30	20	0	34.441	35.391	35.145
638	"N29"	85	85	85	0	6.544	6.5053	3.8482
767	"N30"	0	10	10	20	52.858	53.287	42.421
1279	"N31"	0	40	100	100	2.5356	2.5301	0.93376
785	"N32"	40	10	10	20	32.161	35.818	38.145
1285	"N33"	100	40	100	100	1.3834	1.7214	0.9272
1116	"O1"	100	0	20	60	4.0233	6.3135	9.7349
1165	"O2"	70	100	70	60	3.3702	2.7166	1.7203
1106	"O3"	40	0	20	60	10.885	12.753	11.594
1155	"O4"	20	100	70	60	6.3144	4.1045	1.6767
1096	"O5"	0	0	20	60	17.552	18.567	13.037
729	"O6"	100	100	100	0	3.664	3.8734	2.2561
55	"O7"	70	0	0	0	30.004	38.132	61.496
693	"O8"	40	100	100	0	15.807	9.6095	2.2784
19	"O9"	20	0	0	0	66.155	71.475	71.889
657	"O10"	0	100	100	0	30.384	16.417	2.1357
1166	"O11"	100	0	70	60	2.9468	5.4992	3.8083
1115	"O12"	70	100	20	60	3.6881	2.6925	3.5312
1156	"O13"	40	0	70	60	8.7063	10.81	4.1087
1105	"O14"	20	100	20	60	6.8185	4.1293	3.5251
1146	"O15"	0	0	70	60	14.463	15.773	4.3803
405	"O16"	100	100	40	0	4.8934	4.227	8.7463
379	"O17"	70	0	40	0	24.306	34.442	30.471
369	"O18"	40	100	40	0	17.036	9.9095	8.4951
343	"O19"	20	0	40	0	57.937	65.282	35.342
333	"O20"	0	100	40	0	31.525	16.713	8.6926
81	"O21"	100	100	0	0	5.9847	4.2869	15.899
703	"O22"	70	0	100	0	19.672	30.335	5.7155
45	"O23"	40	100	0	0	18.459	10.135	16.046
667	"O24"	20	0	100	0	51.529	59.137	6.0021
9	"O25"	0	100	0	0	32.54	16.641	16.24
755	"O26"	70	10	0	20	20.246	24.805	40.149
1283	"O27"	40	100	100	100	2.1248	1.9121	0.8517
743	"O28"	20	10	0	20	43.426	45.187	46.138
921	"O29"	10	100	100	20	19.493	11.05	1.9553
227	"O30"	85	10	20	0	18.576	26.246	38.785
702	"O31"	55	100	100	0	11.506	7.6255	2.2956
191	"O32"	30	10	20	0	49.042	53.595	46.035
666	"O33"	10	100	100	0	26.519	14.59	2.2261
72	"P1"	85	100	0	0	8.1029	5.2979	15.827
340	"P2"	10	70	40	0	34.272	24.137	13.968
483	"P3"	100	55	55	0	6.5506	9.3542	11.193
1047	"P4"	0	20	100	40	24.607	24.742	2.8903
966	"P5"	100	0	0	40	7.8864	11.734	24.621
1041	"P6"	100	0	70	40	4.9885	9.9939	6.791
972	"P7"	0	20	20	40	29.603	28.971	20.875
1043	"P8"	100	40	70	40	3.8205	6.1544	4.8109
332	"P9"	0	85	40	0	34.717	21.033	11.097
153	"P10"	85	100	10	0	7.7939	5.3137	13.803
1020	"P11"	100	100	40	40	3.1018	2.7833	4.3737
341	"P12"	10	85	40	0	30.755	19.063	11.102
645	"P13"	100	55	85	0	5.452	8.6712	5.5797
337	"P14"	10	30	40	0	50.294	47.764	25.922
1016	"P15"	100	0	40	40	6.031	10.716	12.899
975	"P16"	0	100	20	40	14.692	8.0191	6.1097
1026	"P17"	20	0	70	40	23.972	27.505	7.9233
985	"P18"	40	100	20	40	8.8642	5.2767	5.9276
1036	"P19"	70	0	70	40	10.213	15.128	7.1568
995	"P20"	100	100	20	40	3.4196	2.8206	6.1531
839	"P21"	0	10	40	20	48.941	50.379	24.983
413	"P22"	0	85	55	0	34.221	20.855	7.9812
857	"P23"	40	10	40	20	28.681	33.245	22.467
449	"P24"	40	85	55	0	18.641	12.797	7.6507
869	"P25"	100	10	40	20	8.6715	14.974	19.269
504	"P26"	10	100	70	0	27.004	14.761	4.3751
1403	"P27"	20	12	12	100	2.3544	2.4509	1.8872
540	"P28"	55	100	70	0	12.158	7.8497	4.4409
137	"P29"	70	10	10	0	25.806	32.587	47.472
585	"P30"	10	100	85	0	26.788	14.692	3.1709
190	"P31"	30	0	20	0	53.459	60.877	50.898
621	"P32"	55	100	85	0	11.844	7.745	3.2349
226	"P33"	85	0	20	0	20.45	29.973	42.588
388	"Q1"	85	0	40	0	17.714	28.071	29.4
354	"Q2"	30	20	40	0	42.187	45.057	28.305
392	"Q3"	85	40	40	0	11.752	15.464	19.015
954	"Q4"	20	70	0	40	15.189	11.028	12.597
1065	"Q5"	70	100	100	40	4.8713	3.7963	1.602
990	"Q6"	70	100	20	40	5.5746	3.7845	5.993
1029	"Q7"	20	70	70	40	13.561	10.362	3.7644
988	"Q8"	70	40	20	40	9.1547	10.107	13.621
346	"Q9"	20	30	40	0	44.17	43.164	25.365
380	"Q10"	70	10	40	0	22.221	30.224	27.687
1011	"Q11"	70	0	40	40	11.281	15.853	13.82
355	"Q12"	30	30	40	0	38.083	38.522	24.763
393	"Q13"	85	55	40	0	10.347	12.121	15.787
359	"Q14"	30	85	40	0	22.653	14.886	10.796
1015	"Q15"	70	100	40	40	5.2597	3.798	4.3099
1044	"Q16"	100	70	70	40	3.254	4.0928	3.564
987	"Q17"	70	20	20	40	11.085	13.59	17.234
1034	"Q18"	40	70	70	40	9.9768	8.179	3.6375
977	"Q19"	20	20	20	40	23.514	24.033	19.687
1024	"Q20"	0	70	70	40	17.151	12.502	3.8006
461	"Q21"	70	10	55	0	20.669	29.041	19.486
447	"Q22"	40	55	55	0	24.03	21.485	11.773
