ref/SpyderChecker24.cie
IT8.7/2
ORIGINATOR "Jose Pereira"
DESCRIPTOR "Datacolor SpyderCheckr (D65)"
CREATED  "dec, 19. 2011"
MANUFACTURER "DataColor"

NUMBER_OF_FIELDS 4
BEGIN_DATA_FORMAT
SAMPLE_ID XYZ_X XYZ_Y XYZ_Z
END_DATA_FORMAT

NUMBER_OF_SETS 24
BEGIN_DATA
A1	85.00	89.31	96.33	
A2	54.09	56.94	61.35	
A3	32.55	34.33	36.79	
A4	17.72	18.68	20.09	
A5	7.89	8.30	8.87	
A6	2.65	2.78	3.12	
B1	12.84	18.14	36.39	
B2	28.20	18.34	29.84	
B3	57.08	61.01	8.56	
B4	19.63	11.29	4.87	
B5	13.70	22.39	9.24	
B6	7.32	5.35	26.41	
C1	35.76	28.16	5.45	
C2	12.71	11.07	36.60	
C3	27.74	18.51	13.48	
C4	9.34	6.93	16.38	
C5	33.22	43.77	10.98	
C6	46.49	42.42	7.53	
D1	30.35	42.13	42.95	
D2	24.45	23.05	44.34	
D3	9.73	12.51	6.59	
D4	17.28	18.47	34.69	
D5	36.71	34.18	24.66	
D6	10.43	9.32	6.27	
END_DATA
