ref/Trulux.sp
SPECT

DESCRIPTOR "Argyll Spectral Power information for Trulux D50 viewer - Foam reflector, extended to 355nm with estimation of UV"
ORIGINATOR "Argyll CMS"
CREATED "Fri Oct 5 15:12:32 2001"
KEYWORD "SPECTRAL_BANDS"
SPECTRAL_BANDS "80"
KEYWORD "SPECTRAL_START_NM"
SPECTRAL_START_NM "380.000000"
KEYWORD "SPECTRAL_END_NM"
SPECTRAL_END_NM "750.000000"
KEYWORD "SPECTRAL_NORM"
SPECTRAL_NORM "100.000"

KEYWORD "SPEC_355"
KEYWORD "SPEC_360"
KEYWORD "SPEC_365"
KEYWORD "SPEC_370"
KEYWORD "SPEC_375"
KEYWORD "SPEC_380"
KEYWORD "SPEC_385"
KEYWORD "SPEC_390"
KEYWORD "SPEC_395"
KEYWORD "SPEC_400"
KEYWORD "SPEC_405"
KEYWORD "SPEC_410"
KEYWORD "SPEC_415"
KEYWORD "SPEC_420"
KEYWORD "SPEC_425"
KEYWORD "SPEC_430"
KEYWORD "SPEC_435"
KEYWORD "SPEC_440"
KEYWORD "SPEC_445"
KEYWORD "SPEC_450"
KEYWORD "SPEC_455"
KEYWORD "SPEC_460"
KEYWORD "SPEC_465"
KEYWORD "SPEC_470"
KEYWORD "SPEC_475"
KEYWORD "SPEC_480"
KEYWORD "SPEC_485"
KEYWORD "SPEC_490"
KEYWORD "SPEC_495"
KEYWORD "SPEC_500"
KEYWORD "SPEC_505"
KEYWORD "SPEC_510"
KEYWORD "SPEC_515"
KEYWORD "SPEC_520"
KEYWORD "SPEC_525"
KEYWORD "SPEC_530"
KEYWORD "SPEC_535"
KEYWORD "SPEC_540"
KEYWORD "SPEC_545"
KEYWORD "SPEC_550"
KEYWORD "SPEC_555"
KEYWORD "SPEC_560"
KEYWORD "SPEC_565"
KEYWORD "SPEC_570"
KEYWORD "SPEC_575"
KEYWORD "SPEC_580"
KEYWORD "SPEC_585"
KEYWORD "SPEC_590"
KEYWORD "SPEC_595"
KEYWORD "SPEC_600"
KEYWORD "SPEC_605"
KEYWORD "SPEC_610"
KEYWORD "SPEC_615"
KEYWORD "SPEC_620"
KEYWORD "SPEC_625"
KEYWORD "SPEC_630"
KEYWORD "SPEC_635"
KEYWORD "SPEC_640"
KEYWORD "SPEC_645"
KEYWORD "SPEC_650"
KEYWORD "SPEC_655"
KEYWORD "SPEC_660"
KEYWORD "SPEC_665"
KEYWORD "SPEC_670"
KEYWORD "SPEC_675"
KEYWORD "SPEC_680"
KEYWORD "SPEC_685"
KEYWORD "SPEC_690"
KEYWORD "SPEC_695"
KEYWORD "SPEC_700"
KEYWORD "SPEC_705"
KEYWORD "SPEC_710"
KEYWORD "SPEC_715"
KEYWORD "SPEC_720"
KEYWORD "SPEC_725"
KEYWORD "SPEC_730"
KEYWORD "SPEC_735"
KEYWORD "SPEC_740"
KEYWORD "SPEC_745"
KEYWORD "SPEC_750"
NUMBER_OF_FIELDS 80
BEGIN_DATA_FORMAT
SPEC_355 SPEC_360 SPEC_365 SPEC_370 SPEC_375 SPEC_380 SPEC_385 SPEC_390 SPEC_395 SPEC_400 SPEC_405 SPEC_410 SPEC_415 SPEC_420 SPEC_425 SPEC_430 SPEC_435 SPEC_440 SPEC_445 SPEC_450 SPEC_455 SPEC_460 SPEC_465 SPEC_470 SPEC_475 SPEC_480 SPEC_485 SPEC_490 SPEC_495 SPEC_500 SPEC_505 SPEC_510 SPEC_515 SPEC_520 SPEC_525 SPEC_530 SPEC_535 SPEC_540 SPEC_545 SPEC_550 SPEC_555 SPEC_560 SPEC_565 SPEC_570 SPEC_575 SPEC_580 SPEC_585 SPEC_590 SPEC_595 SPEC_600 SPEC_605 SPEC_610 SPEC_615 SPEC_620 SPEC_625 SPEC_630 SPEC_635 SPEC_640 SPEC_645 SPEC_650 SPEC_655 SPEC_660 SPEC_665 SPEC_670 SPEC_675 SPEC_680 SPEC_685 SPEC_690 SPEC_695 SPEC_700 SPEC_705 SPEC_710 SPEC_715 SPEC_720 SPEC_725 SPEC_730 SPEC_735 SPEC_740 SPEC_745 SPEC_750
END_DATA_FORMAT

NUMBER_OF_SETS 1
BEGIN_DATA
0.0 0.685175 1.37035 2.255525 3.0407 4.11105 4.09644 5.01837 7.36485 11.98614 11.19519 7.11198 3.33963 6.44973 21.99549 67.47228 93.88269 79.77081 64.85577 57.85737 65.37378 75.29142 82.82394 87.81939 90.44277 92.28321 93.10557 93.11004 92.17122 89.96841 87.65004 84.8304 82.13712 77.75847 74.04651 74.87289 91.45155 123.67365 139.4193 115.8867 87.2391 79.06761 81.88944 91.58172 101.15043 102.11544 94.71408 93.87819 94.00419 95.28195 97.80723 99.53307 99.40416 98.43141 97.50237 95.58378 93.41358 91.00236 88.69698 85.72017 83.18451 80.22261 77.45886 73.79589 70.02708 66.29484 62.08128 57.95706 53.89545 49.70493 45.99504 42.19815 38.68413 35.16609 32.78418 30.1482 27.3201 24.13857 21.88494 20.10168
END_DATA
