scanin/ColorCheckerPassport.cie
CTI3
DESCRIPTOR "ColorChecker Passport CIE data"
ORIGINATOR "Ben Goren <ben@trumpetpower.com>"
CREATED "Fri Aug  3 15:35:05 MST 2012"

KEYWORD "SAMPLE_LOC"
NUMBER_OF_FIELDS 7
BEGIN_DATA_FORMAT
SAMPLE_LOC XYZ_X XYZ_Y XYZ_Z LAB_L LAB_A LAB_B
END_DATA_FORMAT

NUMBER_OF_SETS 50
BEGIN_DATA
SAT1    31.444334   19.286094   6.888559    51.020256   55.280672   28.133194
SAT2    56.064662   44.030373   6.427599    72.248793   36.945117   66.729238
SAT3    67.324242   67.447159   7.468562    85.729258   5.091307    85.588609
SAT4    15.570651   29.465796   11.204340   61.190534   -60.437314  30.279584
SAT5    21.619963   29.778971   41.255169   61.463043   -30.131006  -25.196180
SAT6    17.456572   19.372800   46.618774   51.120542   -6.455450   -49.629615
SAT7    24.114288   18.910816   30.964446   50.582702   28.026310   -29.474885
SAT8    30.360635   18.858573   16.938149   50.521331   53.431168   -3.299773
WBP1    55.603171   57.729295   46.421327   80.588052   -0.148185   1.410213
WBP2    57.049606   60.324512   49.899666   82.014259   -2.717710   -0.156044
WBP3    53.811668   58.177050   49.424708   80.837125   -5.740350   -1.647214
WBP4    52.378305   57.343255   49.645561   80.372273   -7.424711   -2.699450
WBP5    52.469763   58.680177   51.976257   81.115480   -10.390873  -4.020205
WBL1    59.661034   59.332741   48.551776   81.474151   5.919789    0.449649
WBL2    59.041480   59.368909   48.292349   81.493953   4.354460    0.782852
WBL3    55.920447   58.052670   47.039351   80.768065   -0.134018   0.991035
WBL4    55.083575   58.526581   51.102758   81.030672   -3.356452   -3.200486
WBL5    53.892264   58.200472   53.598335   80.850119   -5.590938   -6.243136
NEU1    3.151107    3.263644    2.737095    21.070257   0.072763    -0.353478
NEU2    3.610326    3.768524    3.225077    22.890939   -0.358852   -0.826826
NEU3    4.585675    4.814770    4.063276    26.200395   -0.743922   -0.554941
NEU4    5.242110    5.523981    4.582603    28.178271   -1.007717   -0.143878
NEU5    44.365128   46.364955   37.756524   73.781723   -0.983457   0.663808
NEU6    55.836099   58.281967   47.535933   80.895303   -0.892210   0.628840
NEU7    70.627230   73.603361   59.694037   88.734687   -0.724494   1.018307
NEU8    88.638466   92.368156   71.516660   96.970594   -0.771975   4.070471
A1  11.411919   10.072672   5.112897    37.972545   12.849750   13.905933
A2  38.118655   34.074205   18.534096   65.021429   17.736538   18.105244
A3  16.687521   18.224488   25.415039   49.767263   -4.838656   -21.688821
A4  11.119565   13.272712   5.165291    43.171313   -11.673243  22.599880
A5  23.995041   23.022599   32.256955   55.095608   8.054000    -23.674108
A6  29.864887   41.242607   33.617201   70.345563   -33.879730  0.591375
B1  40.774497   30.980646   4.853984    62.491292   36.974257   57.538878
B2  12.786912   11.654674   29.315826   40.661930   10.745627   -43.972357
B3  29.900282   19.631992   10.314269   51.418556   47.835790   16.229131
B4  8.854344    6.750602    10.881778   31.232269   21.992198   -20.376399
B5  35.445183   44.094908   8.863355    72.291888   -22.389553  57.145982
B6  49.113465   43.647237   6.214123    71.992078   20.037754   67.243006
C1  6.659992    5.799339    20.113152   28.900464   11.613838   -47.531575
C2  15.407588   23.700772   7.772715    55.786947   -38.099805  32.761011
C3  21.254733   12.710445   3.970060    42.323678   50.646029   27.808803
C4  58.616280   59.203678   6.871706    81.403423   3.722966    80.589317
C5  31.444170   20.458848   23.347563   52.352077   49.539466   -13.465303
C6  13.290512   19.046913   29.203736   50.742046   -29.398805  -26.412062
D1  87.016740   90.636247   69.996509   96.260066   -0.692605   4.206323
D2  57.632418   59.860806   48.528468   81.762472   -0.207864   0.973581
D3  35.434916   36.927843   30.230398   67.222860   -0.574879   0.364223
D4  18.558911   19.319142   15.738222   51.058515   -0.355289   0.481164
D5  8.770657    9.165214    7.636996    36.300462   -0.566396   -0.303560
D6  3.216922    3.320339    2.732945    21.283684   0.258119    0.046995
END_DATA
