scanin/ColorCheckerHalfPassport.cie
CTI3
DESCRIPTOR "ColorChecker Half Passport CIE data"
ORIGINATOR "Ben Goren <ben@trumpetpower.com>"
CREATED "Fri Aug  3 15:35:05 MST 2012"

KEYWORD "SAMPLE_LOC"
NUMBER_OF_FIELDS 7
BEGIN_DATA_FORMAT
SAMPLE_LOC XYZ_X XYZ_Y XYZ_Z LAB_L LAB_A LAB_B
END_DATA_FORMAT

NUMBER_OF_SETS 24
BEGIN_DATA
A1  11.411919   10.072672   5.112897    37.972545   12.849750   13.905933
A2  38.118655   34.074205   18.534096   65.021429   17.736538   18.105244
A3  16.687521   18.224488   25.415039   49.767263   -4.838656   -21.688821
A4  11.119565   13.272712   5.165291    43.171313   -11.673243  22.599880
A5  23.995041   23.022599   32.256955   55.095608   8.054000    -23.674108
A6  29.864887   41.242607   33.617201   70.345563   -33.879730  0.591375
B1  40.774497   30.980646   4.853984    62.491292   36.974257   57.538878
B2  12.786912   11.654674   29.315826   40.661930   10.745627   -43.972357
B3  29.900282   19.631992   10.314269   51.418556   47.835790   16.229131
B4  8.854344    6.750602    10.881778   31.232269   21.992198   -20.376399
B5  35.445183   44.094908   8.863355    72.291888   -22.389553  57.145982
B6  49.113465   43.647237   6.214123    71.992078   20.037754   67.243006
C1  6.659992    5.799339    20.113152   28.900464   11.613838   -47.531575
C2  15.407588   23.700772   7.772715    55.786947   -38.099805  32.761011
C3  21.254733   12.710445   3.970060    42.323678   50.646029   27.808803
C4  58.616280   59.203678   6.871706    81.403423   3.722966    80.589317
C5  31.444170   20.458848   23.347563   52.352077   49.539466   -13.465303
C6  13.290512   19.046913   29.203736   50.742046   -29.398805  -26.412062
D1  87.016740   90.636247   69.996509   96.260066   -0.692605   4.206323
D2  57.632418   59.860806   48.528468   81.762472   -0.207864   0.973581
D3  35.434916   36.927843   30.230398   67.222860   -0.574879   0.364223
D4  18.558911   19.319142   15.738222   51.058515   -0.355289   0.481164
D5  8.770657    9.165214    7.636996    36.300462   -0.566396   -0.303560
D6  3.216922    3.320339    2.732945    21.283684   0.258119    0.046995
END_DATA
