doc/ccmxs/DTP-94_Dell_U2410.ccmx
CCMX   

DESCRIPTOR "Xrite DTP94 & Dell U2410"
KEYWORD "INSTRUMENT"
INSTRUMENT "Xrite DTP94"
KEYWORD "DISPLAY"
DISPLAY "Dell U2410"
KEYWORD "REFERENCE"
REFERENCE "GretagMacbeth i1 Pro prd.de ccmx"
ORIGINATOR "Argyll ccmx"
CREATED "Tue May 17 19:18:08 2011"
KEYWORD "COLOR_REP"
COLOR_REP "XYZ"

NUMBER_OF_FIELDS 3
BEGIN_DATA_FORMAT
XYZ_X XYZ_Y XYZ_Z 
END_DATA_FORMAT

NUMBER_OF_SETS 3
BEGIN_DATA
0.936109 0.022419 0.014533 
-0.038308 1.014059 0.010001 
-0.012576 0.010240 1.005667 
END_DATA
