doc/ccmxs/DTP-94_1997_Shaw_Dell_2408W.ccmx
CCMX   

DESCRIPTOR "Xrite DTP94 & Dell 2408WFP"
KEYWORD "INSTRUMENT"
INSTRUMENT "1997 Shaw Xrite DTP94"
KEYWORD "DISPLAY"
DISPLAY "Dell 2408WFP"
KEYWORD "REFERENCE"
REFERENCE "GretagMacbeth i1 Pro"
ORIGINATOR "Argyll ccmx"
CREATED "Mon Sep 20 10:41:08 2010"
KEYWORD "COLOR_REP"
COLOR_REP "XYZ"

NUMBER_OF_FIELDS 3
BEGIN_DATA_FORMAT
XYZ_X XYZ_Y XYZ_Z 
END_DATA_FORMAT

NUMBER_OF_SETS 3
BEGIN_DATA
0.84519 0.048811 0.010471 
-0.057861 1.0433 0.013805 
-0.017341 0.027907 0.94117 
END_DATA
