doc/ccmxs/DTP-94_1964_10_Dell_2408W.ccmx
CCMX   

DESCRIPTOR "Xrite DTP94 & Dell 2408WFP"
KEYWORD "INSTRUMENT"
INSTRUMENT "1964_10 Xrite DTP94"
KEYWORD "DISPLAY"
DISPLAY "Dell 2408WFP"
KEYWORD "REFERENCE"
REFERENCE "GretagMacbeth i1 Pro"
ORIGINATOR "Argyll ccmx"
CREATED "Mon Sep 20 10:38:25 2010"
KEYWORD "COLOR_REP"
COLOR_REP "XYZ"

NUMBER_OF_FIELDS 3
BEGIN_DATA_FORMAT
XYZ_X XYZ_Y XYZ_Z 
END_DATA_FORMAT

NUMBER_OF_SETS 3
BEGIN_DATA
0.83589 0.11701 0.028937 
-0.080058 1.0887 0.058441 
0.011479 -0.035708 1.0529 
END_DATA
