doc/ccmxs/DTP-94_Dell_2408W.ccmx
CCMX   

DESCRIPTOR "Xrite DTP94 & Dell 2408WFP"
KEYWORD "INSTRUMENT"
INSTRUMENT "Xrite DTP94"
KEYWORD "DISPLAY"
DISPLAY "Dell 2408WFP"
KEYWORD "REFERENCE"
REFERENCE "GretagMacbeth i1 Pro"
ORIGINATOR "Argyll ccmx"
CREATED "Mon Sep 20 10:37:13 2010"
KEYWORD "COLOR_REP"
COLOR_REP "XYZ"

NUMBER_OF_FIELDS 3
BEGIN_DATA_FORMAT
XYZ_X XYZ_Y XYZ_Z 
END_DATA_FORMAT

NUMBER_OF_SETS 3
BEGIN_DATA
0.86461 0.030195 0.012871 
-0.069159 1.0244 0.017185 
-0.010324 0.011396 0.96486 
END_DATA
