doc/ccmxs/Huey_NEC_Spectraview_241.ccmx
CCMX   

DESCRIPTOR "Spectraview241"
KEYWORD "INSTRUMENT"
INSTRUMENT "GretagMacbeth Huey"
KEYWORD "DISPLAY"
DISPLAY "NEC Spectraview 241"
KEYWORD "REFERENCE"
REFERENCE "GretagMacbeth i1 Pro"
ORIGINATOR "Argyll ccmx"
CREATED "Thu Mar 03 11:12:44 2011"
KEYWORD "COLOR_REP"
COLOR_REP "XYZ"

NUMBER_OF_FIELDS 3
BEGIN_DATA_FORMAT
XYZ_X XYZ_Y XYZ_Z 
END_DATA_FORMAT

NUMBER_OF_SETS 3
BEGIN_DATA
0.84308 -0.012484 0.028477 
0.023148 0.83371 -3.9284e-003 
-0.013409 0.025818 0.94938 
END_DATA
