doc/ccmxs/Huey_Eizo_CG243.ccmx
CCMX   

DESCRIPTOR "Eizo CG243"
KEYWORD "INSTRUMENT"
INSTRUMENT "GretagMacbeth Huey"
KEYWORD "DISPLAY"
DISPLAY "Eizo CG243"
KEYWORD "REFERENCE"
REFERENCE "GretagMacbeth i1 Pro"
ORIGINATOR "Argyll ccmx"
CREATED "Mon Mar 07 10:40:28 2011"
KEYWORD "COLOR_REP"
COLOR_REP "XYZ"

NUMBER_OF_FIELDS 3
BEGIN_DATA_FORMAT
XYZ_X XYZ_Y XYZ_Z 
END_DATA_FORMAT

NUMBER_OF_SETS 3
BEGIN_DATA
0.84312 -0.016137 0.028123 
0.033176 0.82353 -4.9480e-003 
-0.011411 0.024250 0.94937 
END_DATA
