doc/ccmxs/Spyder3_HP_LP2475w.ccmx
CCMX   

DESCRIPTOR "Datacolor Spyder3 & HP LP2475w"
KEYWORD "INSTRUMENT"
INSTRUMENT "Datacolor Spyder3"
KEYWORD "DISPLAY"
DISPLAY "HP LP2475w"
KEYWORD "REFERENCE"
REFERENCE "GretagMacbeth i1 Pro"
ORIGINATOR "Argyll ccmx"
CREATED "Mon Sep 13 23:44:09 2010"
KEYWORD "COLOR_REP"
COLOR_REP "XYZ"

NUMBER_OF_FIELDS 3
BEGIN_DATA_FORMAT
XYZ_X XYZ_Y XYZ_Z 
END_DATA_FORMAT

NUMBER_OF_SETS 3
BEGIN_DATA
0.92077 0.050783 -0.010618 
6.1547e-003 0.89775 5.5560e-003 
0.028303 -0.16027 0.87261 
END_DATA
