doc/ccmxs/Spyder2_EIZO_S2433W_standard_1931.ccmx
CCMX   

DESCRIPTOR "ColorVision Spyder2 & EIZO_S2433W"
KEYWORD "INSTRUMENT"
INSTRUMENT "ColorVision Spyder2"
KEYWORD "DISPLAY"
DISPLAY "EIZO_S2433W"
KEYWORD "REFERENCE"
REFERENCE "GretagMacbeth i1 Pro"
ORIGINATOR "Argyll ccmx"
CREATED "Fri Nov 19 15:57:46 2010"
KEYWORD "COLOR_REP"
COLOR_REP "XYZ"

NUMBER_OF_FIELDS 3
BEGIN_DATA_FORMAT
XYZ_X XYZ_Y XYZ_Z 
END_DATA_FORMAT

NUMBER_OF_SETS 3
BEGIN_DATA
1.1862 0.027113 0.025124 
-8.2603e-003 1.2120 0.015153 
0.10617 -0.23223 1.3005 
END_DATA
