doc/ccmxs/Spyder3_NEC_PA301W.ccmx
CCMX   

DESCRIPTOR "Spyder3 & NEC PA301W"
KEYWORD "INSTRUMENT"
INSTRUMENT "Spyder3"
KEYWORD "DISPLAY"
DISPLAY "NEC WA301P"
KEYWORD "REFERENCE"
REFERENCE "NEC factory read of primaries; monitor is new"
ORIGINATOR "DC"
CREATED "Sun 06 Jan 2013 19:50 "
KEYWORD "COLOR_REP"
COLOR_REP "XYZ"

NUMBER_OF_FIELDS 3
BEGIN_DATA_FORMAT
XYZ_X XYZ_Y XYZ_Z 
END_DATA_FORMAT

NUMBER_OF_SETS 3
BEGIN_DATA
1.03390 -0.00402 0.00022 
0.01819 0.98822 0.00145 
-0.00899 0.04468 1.02205 
END_DATA
