doc/ccmxs/Spyder3_EIZO_S2243W_standard_1931.ccmx
CCMX   

DESCRIPTOR "Datacolor Spyder3 & EIZO S2243W"
KEYWORD "INSTRUMENT"
INSTRUMENT "Datacolor Spyder3"
KEYWORD "DISPLAY"
DISPLAY "EIZO S2243W"
KEYWORD "REFERENCE"
REFERENCE "X-Rite ColorMunki"
ORIGINATOR "Argyll ccmx"
CREATED "Thu Nov 25 19:28:17 2010"
KEYWORD "COLOR_REP"
COLOR_REP "XYZ"

NUMBER_OF_FIELDS 3
BEGIN_DATA_FORMAT
XYZ_X XYZ_Y XYZ_Z 
END_DATA_FORMAT

NUMBER_OF_SETS 3
BEGIN_DATA
0.95589 0.019068 0.017652 
-2.3435e-003 0.97122 -4.2447e-003 
2.9065e-003 -4.1199e-004 1.0474 
END_DATA
